(1001)
(T1  D=1.587 CR=0. - ZMIN=0.15 - FLAT END MILL)
G0 G90 G94 G17
G21
G53 G0 Z0.

(CONTOUR1)
M5
M9
T1
S16500 M3
G4 P4.
G55
M8
G0 X3.826 Y7.824
Z25.25
Z14.35
G1 Z13.413 F356.
Y7.817 Z13.365
Y7.795 Z13.322
Y7.761 Z13.287
Y7.719 Z13.264
Y7.671 Z13.255
Y4.688 Z13.151
X3.828 Y4.686
X3.852 Z13.15
X3.857
X30.987
X30.989 Y4.688
Y31.846
X30.987 Y31.848
X3.828
X3.826 Y31.846
Y4.688
X3.828 Y4.686
X3.857
X3.879
X3.9
X3.944 Z13.149
X4.03
X4.204 Z13.147
X4.377 Z13.145
X4.55 Z13.141
X4.723 Z13.136
X4.81 Z13.134
X4.897 Z13.131
X4.983 Z13.129
X5.07 Z13.126
X5.157 Z13.123
X5.243 Z13.12
X5.33 Z13.117
X5.416 Z13.114
X5.503 Z13.111
X5.59 Z13.108
X5.676 Z13.105
X5.85 Z13.098
X6.109 Z13.089
X6.196 Z13.086
X6.283 Z13.083
X6.369 Z13.08
X6.456 Z13.077
X6.542 Z13.074
X6.629 Z13.071
X6.716 Z13.069
X6.802 Z13.066
X6.976 Z13.061
X7.149 Z13.057
X7.322 Z13.054
X7.495 Z13.051
X7.669 Z13.05
X7.722
X7.763
X7.776
X30.987
X30.989 Y4.688
Y31.846
X30.987 Y31.848
X3.828
X3.826 Y31.846
Y4.688
X3.828 Y4.686
X7.776
X7.798
X7.819
X7.863 Z13.049
X7.949
X8.123 Z13.047
X8.296 Z13.045
X8.469 Z13.041
X8.642 Z13.036
X8.729 Z13.034
X8.816 Z13.031
X8.902 Z13.029
X8.989 Z13.026
X9.075 Z13.023
X9.162 Z13.02
X9.249 Z13.017
X9.335 Z13.014
X9.422 Z13.011
X9.509 Z13.008
X9.595 Z13.005
X9.768 Z12.998
X10.028 Z12.989
X10.115 Z12.986
X10.202 Z12.983
X10.288 Z12.98
X10.375 Z12.977
X10.461 Z12.974
X10.548 Z12.971
X10.635 Z12.969
X10.721 Z12.966
X10.895 Z12.961
X11.068 Z12.957
X11.241 Z12.954
X11.414 Z12.951
X11.588 Z12.95
X11.641
X11.682
X11.695
X30.987
X30.989 Y4.688
Y31.846
X30.987 Y31.848
X3.828
X3.826 Y31.846
Y4.688
X3.828 Y4.686
X11.695
X11.717
X11.738
X11.782 Z12.949
X11.868
X12.041 Z12.947
X12.215 Z12.945
X12.388 Z12.941
X12.561 Z12.936
X12.648 Z12.934
X12.734 Z12.931
X12.821 Z12.929
X12.908 Z12.926
X12.994 Z12.923
X13.081 Z12.92
X13.168 Z12.917
X13.254 Z12.914
X13.341 Z12.911
X13.427 Z12.908
X13.514 Z12.905
X13.687 Z12.898
X13.947 Z12.889
X14.034 Z12.886
X14.12 Z12.883
X14.207 Z12.88
X14.294 Z12.877
X14.38 Z12.874
X14.467 Z12.871
X14.554 Z12.869
X14.64 Z12.866
X14.813 Z12.861
X14.987 Z12.857
X15.16 Z12.854
X15.333 Z12.851
X15.506 Z12.85
X15.56
X15.6
X15.614
X30.987
X30.989 Y4.688
Y31.846
X30.987 Y31.848
X3.828
X3.826 Y31.846
Y4.688
X3.828 Y4.686
X15.614
X15.636
X15.657
X15.701 Z12.849
X15.787
X15.96 Z12.847
X16.134 Z12.845
X16.307 Z12.841
X16.48 Z12.836
X16.567 Z12.834
X16.653 Z12.831
X16.74 Z12.829
X16.827 Z12.826
X16.913 Z12.823
X17. Z12.82
X17.086 Z12.817
X17.173 Z12.814
X17.26 Z12.811
X17.346 Z12.808
X17.433 Z12.805
X17.606 Z12.798
X17.866 Z12.789
X17.953 Z12.786
X18.039 Z12.783
X18.126 Z12.78
X18.213 Z12.777
X18.299 Z12.774
X18.386 Z12.771
X18.472 Z12.769
X18.559 Z12.766
X18.732 Z12.761
X18.906 Z12.757
X19.079 Z12.754
X19.252 Z12.751
X19.425 Z12.75
X19.479
X19.519
X19.533
X30.987
X30.989 Y4.688
Y31.846
X30.987 Y31.848
X3.828
X3.826 Y31.846
Y4.688
X3.828 Y4.686
X19.533
X19.554
X19.576
X19.619 Z12.749
X19.706
X19.879 Z12.747
X20.053 Z12.745
X20.226 Z12.741
X20.399 Z12.736
X20.486 Z12.734
X20.572 Z12.731
X20.659 Z12.729
X20.746 Z12.726
X20.832 Z12.723
X20.919 Z12.72
X21.005 Z12.717
X21.092 Z12.714
X21.179 Z12.711
X21.265 Z12.708
X21.352 Z12.705
X21.525 Z12.698
X21.785 Z12.689
X21.872 Z12.686
X21.958 Z12.683
X22.045 Z12.68
X22.132 Z12.677
X22.218 Z12.674
X22.305 Z12.671
X22.391 Z12.669
X22.478 Z12.666
X22.651 Z12.661
X22.825 Z12.657
X22.998 Z12.654
X23.171 Z12.651
X23.344 Z12.65
X23.398
X23.438
X23.452
X30.987
X30.989 Y4.688
Y31.846
X30.987 Y31.848
X3.828
X3.826 Y31.846
Y4.688
X3.828 Y4.686
X23.452
X23.473
X23.495
X23.538 Z12.649
X23.625
X23.798 Z12.647
X23.971 Z12.645
X24.145 Z12.641
X24.318 Z12.636
X24.405 Z12.634
X24.491 Z12.631
X24.578 Z12.629
X24.664 Z12.626
X24.751 Z12.623
X24.838 Z12.62
X24.924 Z12.617
X25.011 Z12.614
X25.098 Z12.611
X25.184 Z12.608
X25.271 Z12.605
X25.444 Z12.598
X25.704 Z12.589
X25.791 Z12.586
X25.877 Z12.583
X25.964 Z12.58
X26.05 Z12.577
X26.137 Z12.574
X26.224 Z12.571
X26.31 Z12.569
X26.397 Z12.566
X26.57 Z12.561
X26.743 Z12.557
X26.917 Z12.554
X27.09 Z12.551
X27.263 Z12.55
X27.317
X27.357
X27.371
X30.987
X30.989 Y4.688
Y31.846
X30.987 Y31.848
X3.828
X3.826 Y31.846
Y4.688
X3.828 Y4.686
X27.371
X27.392
X27.414
X27.457 Z12.549
X27.544
X27.717 Z12.547
X27.89 Z12.545
X28.064 Z12.541
X28.237 Z12.536
X28.323 Z12.534
X28.41 Z12.531
X28.497 Z12.529
X28.583 Z12.526
X28.67 Z12.523
X28.757 Z12.52
X28.843 Z12.517
X28.93 Z12.514
X29.016 Z12.511
X29.103 Z12.508
X29.19 Z12.505
X29.363 Z12.498
X29.623 Z12.489
X29.709 Z12.486
X29.796 Z12.483
X29.883 Z12.48
X29.969 Z12.477
X30.056 Z12.474
X30.143 Z12.471
X30.229 Z12.469
X30.316 Z12.466
X30.489 Z12.461
X30.662 Z12.457
X30.836 Z12.454
X30.914 Z12.452
X30.954
X30.982 Z12.451
X30.986
X30.989 Y4.69
Y4.694
Y4.707
Y4.88 Z12.45
Y4.934
Y4.974
Y4.988
Y31.846
X30.987 Y31.848
X3.828
X3.826 Y31.846
Y4.688
X3.828 Y4.686
X30.987
X30.989 Y4.688
Y4.988
Y5.01
Y5.031
Y5.074 Z12.449
Y5.161
Y5.334 Z12.447
Y5.508 Z12.445
Y5.681 Z12.441
Y5.854 Z12.436
Y5.941 Z12.434
Y6.027 Z12.431
Y6.114 Z12.429
Y6.201 Z12.426
Y6.287 Z12.423
Y6.374 Z12.42
Y6.46 Z12.417
Y6.547 Z12.414
Y6.634 Z12.411
Y6.72 Z12.408
Y6.807 Z12.405
Y6.98 Z12.398
Y7.24 Z12.389
Y7.327 Z12.386
Y7.413 Z12.383
Y7.5 Z12.38
Y7.587 Z12.377
Y7.673 Z12.374
Y7.76 Z12.371
Y7.846 Z12.369
Y7.933 Z12.366
Y8.106 Z12.361
Y8.28 Z12.357
Y8.453 Z12.354
Y8.626 Z12.351
Y8.799 Z12.35
Y8.853
Y8.893
Y8.907
Y31.846
X30.987 Y31.848
X3.828
X3.826 Y31.846
Y4.688
X3.828 Y4.686
X30.987
X30.989 Y4.688
Y8.907
Y8.928
Y8.95
Y8.993 Z12.349
Y9.08
Y9.253 Z12.347
Y9.427 Z12.345
Y9.6 Z12.341
Y9.773 Z12.336
Y9.86 Z12.334
Y9.946 Z12.331
Y10.033 Z12.329
Y10.12 Z12.326
Y10.206 Z12.323
Y10.293 Z12.32
Y10.379 Z12.317
Y10.466 Z12.314
Y10.553 Z12.311
Y10.639 Z12.308
Y10.726 Z12.305
Y10.899 Z12.298
Y11.159 Z12.289
Y11.246 Z12.286
Y11.332 Z12.283
Y11.419 Z12.28
Y11.506 Z12.277
Y11.592 Z12.274
Y11.679 Z12.271
Y11.765 Z12.269
Y11.852 Z12.266
Y12.025 Z12.261
Y12.198 Z12.257
Y12.372 Z12.254
Y12.545 Z12.251
Y12.718 Z12.25
Y12.772
Y12.812
Y12.826
Y31.846
X30.987 Y31.848
X3.828
X3.826 Y31.846
Y4.688
X3.828 Y4.686
X30.987
X30.989 Y4.688
Y8.907
Y12.826
Y12.847
Y12.869
Y12.912 Z12.249
Y12.999
Y13.172 Z12.247
Y13.345 Z12.245
Y13.519 Z12.241
Y13.692 Z12.236
Y13.779 Z12.234
Y13.865 Z12.231
Y13.952 Z12.229
Y14.038 Z12.226
Y14.125 Z12.223
Y14.212 Z12.22
Y14.298 Z12.217
Y14.385 Z12.214
Y14.472 Z12.211
Y14.558 Z12.208
Y14.645 Z12.205
Y14.818 Z12.198
Y15.078 Z12.189
Y15.165 Z12.186
Y15.251 Z12.183
Y15.338 Z12.18
Y15.424 Z12.177
Y15.511 Z12.174
Y15.598 Z12.171
Y15.684 Z12.169
Y15.771 Z12.166
Y15.944 Z12.161
Y16.117 Z12.157
Y16.291 Z12.154
Y16.464 Z12.151
Y16.637 Z12.15
Y16.691
Y16.731
Y16.745
Y31.846
X30.987 Y31.848
X3.828
X3.826 Y31.846
Y4.688
X3.828 Y4.686
X30.987
X30.989 Y4.688
Y12.826
Y16.745
Y16.766
Y16.788
Y16.831 Z12.149
Y16.918
Y17.091 Z12.147
Y17.264 Z12.145
Y17.438 Z12.141
Y17.611 Z12.136
Y17.697 Z12.134
Y17.784 Z12.131
Y17.871 Z12.129
Y17.957 Z12.126
Y18.044 Z12.123
Y18.131 Z12.12
Y18.217 Z12.117
Y18.304 Z12.114
Y18.39 Z12.111
Y18.477 Z12.108
Y18.564 Z12.105
Y18.737 Z12.098
Y18.997 Z12.089
Y19.083 Z12.086
Y19.17 Z12.083
Y19.257 Z12.08
Y19.343 Z12.077
Y19.43 Z12.074
Y19.517 Z12.071
Y19.603 Z12.069
Y19.69 Z12.066
Y19.863 Z12.061
Y20.036 Z12.057
Y20.21 Z12.054
Y20.383 Z12.051
Y20.556 Z12.05
Y20.61
Y20.65
Y20.664
Y31.846
X30.987 Y31.848
X3.828
X3.826 Y31.846
Y4.688
X3.828 Y4.686
X30.987
X30.989 Y4.688
Y16.745
Y20.664
Y20.685
Y20.707
Y20.75 Z12.049
Y20.837
Y21.01 Z12.047
Y21.183 Z12.045
Y21.357 Z12.041
Y21.53 Z12.036
Y21.616 Z12.034
Y21.703 Z12.031
Y21.79 Z12.029
Y21.876 Z12.026
Y21.963 Z12.023
Y22.049 Z12.02
Y22.136 Z12.017
Y22.223 Z12.014
Y22.309 Z12.011
Y22.396 Z12.008
Y22.483 Z12.005
Y22.656 Z11.998
Y22.916 Z11.989
Y23.002 Z11.986
Y23.089 Z11.983
Y23.176 Z11.98
Y23.262 Z11.977
Y23.349 Z11.974
Y23.435 Z11.971
Y23.522 Z11.969
Y23.609 Z11.966
Y23.782 Z11.961
Y23.955 Z11.957
Y24.128 Z11.954
Y24.302 Z11.951
Y24.475 Z11.95
Y24.529
Y24.569
Y24.582
Y31.846
X30.987 Y31.848
X3.828
X3.826 Y31.846
Y4.688
X3.828 Y4.686
X30.987
X30.989 Y4.688
Y20.664
Y24.582
Y24.604
Y24.626
Y24.669 Z11.949
Y24.756
Y24.929 Z11.947
Y25.102 Z11.945
Y25.275 Z11.941
Y25.449 Z11.936
Y25.535 Z11.934
Y25.622 Z11.931
Y25.709 Z11.929
Y25.795 Z11.926
Y25.882 Z11.923
Y25.968 Z11.92
Y26.055 Z11.917
Y26.142 Z11.914
Y26.228 Z11.911
Y26.315 Z11.908
Y26.402 Z11.905
Y26.575 Z11.898
Y26.835 Z11.889
Y26.921 Z11.886
Y27.008 Z11.883
Y27.095 Z11.88
Y27.181 Z11.877
Y27.268 Z11.874
Y27.354 Z11.871
Y27.441 Z11.869
Y27.528 Z11.866
Y27.701 Z11.861
Y27.874 Z11.857
Y28.047 Z11.854
Y28.221 Z11.851
Y28.394 Z11.85
Y28.448
Y28.488
Y28.501
Y31.846
X30.987 Y31.848
X3.828
X3.826 Y31.846
Y4.688
X3.828 Y4.686
X30.987
X30.989 Y4.688
Y24.582
Y28.501
Y28.523
Y28.545
Y28.588 Z11.849
Y28.675
Y28.848 Z11.847
Y29.021 Z11.845
Y29.194 Z11.841
Y29.368 Z11.836
Y29.454 Z11.834
Y29.541 Z11.831
Y29.627 Z11.829
Y29.714 Z11.826
Y29.801 Z11.823
Y29.887 Z11.82
Y29.974 Z11.817
Y30.061 Z11.814
Y30.147 Z11.811
Y30.234 Z11.808
Y30.32 Z11.805
Y30.494 Z11.798
Y30.754 Z11.789
Y30.84 Z11.786
Y30.927 Z11.783
Y31.013 Z11.78
Y31.1 Z11.777
Y31.187 Z11.774
Y31.273 Z11.771
Y31.36 Z11.769
Y31.447 Z11.766
Y31.62 Z11.761
Y31.793 Z11.757
Y31.84 Z11.756
Y31.845
X30.987 Y31.848
X30.979
X30.942 Z11.755
X30.87 Z11.754
X30.696 Z11.751
X30.523 Z11.75
X30.469
X30.429
X30.416
X3.828
X3.826 Y31.846
Y4.688
X3.828 Y4.686
X30.987
X30.989 Y4.688
Y28.501
Y31.846
X30.987 Y31.848
X30.416
X30.394
X30.372
X30.329 Z11.749
X30.242
X30.069 Z11.747
X29.896 Z11.745
X29.723 Z11.741
X29.549 Z11.736
X29.463 Z11.734
X29.376 Z11.731
X29.29 Z11.729
X29.203 Z11.726
X29.116 Z11.723
X29.03 Z11.72
X28.943 Z11.717
X28.856 Z11.714
X28.77 Z11.711
X28.683 Z11.708
X28.597 Z11.705
X28.423 Z11.698
X28.163 Z11.689
X28.077 Z11.686
X27.99 Z11.683
X27.904 Z11.68
X27.817 Z11.677
X27.73 Z11.674
X27.644 Z11.671
X27.557 Z11.669
X27.47 Z11.666
X27.297 Z11.661
X27.124 Z11.657
X26.951 Z11.654
X26.777 Z11.651
X26.604 Z11.65
X26.55
X26.51
X26.497
X3.828
X3.826 Y31.846
Y4.688
X3.828 Y4.686
X30.987
X30.989 Y4.688
Y31.846
X30.987 Y31.848
X26.497
X26.475
X26.453
X26.41 Z11.649
X26.324
X26.15 Z11.647
X25.977 Z11.645
X25.804 Z11.641
X25.631 Z11.636
X25.544 Z11.634
X25.457 Z11.631
X25.371 Z11.629
X25.284 Z11.626
X25.197 Z11.623
X25.111 Z11.62
X25.024 Z11.617
X24.938 Z11.614
X24.851 Z11.611
X24.764 Z11.608
X24.678 Z11.605
X24.504 Z11.598
X24.245 Z11.589
X24.158 Z11.586
X24.071 Z11.583
X23.985 Z11.58
X23.898 Z11.577
X23.811 Z11.574
X23.725 Z11.571
X23.638 Z11.569
X23.552 Z11.566
X23.378 Z11.561
X23.205 Z11.557
X23.032 Z11.554
X22.859 Z11.551
X22.685 Z11.55
X22.632
X22.591
X22.578
X3.828
X3.826 Y31.846
Y4.688
X3.828 Y4.686
X30.987
X30.989 Y4.688
Y31.846
X30.987 Y31.848
X26.497
X22.578
X22.556
X22.535
X22.491 Z11.549
X22.405
X22.231 Z11.547
X22.058 Z11.545
X21.885 Z11.541
X21.712 Z11.536
X21.625 Z11.534
X21.538 Z11.531
X21.452 Z11.529
X21.365 Z11.526
X21.278 Z11.523
X21.192 Z11.52
X21.105 Z11.517
X21.019 Z11.514
X20.932 Z11.511
X20.845 Z11.508
X20.759 Z11.505
X20.585 Z11.498
X20.326 Z11.489
X20.239 Z11.486
X20.152 Z11.483
X20.066 Z11.48
X19.979 Z11.477
X19.892 Z11.474
X19.806 Z11.471
X19.719 Z11.469
X19.633 Z11.466
X19.459 Z11.461
X19.286 Z11.457
X19.113 Z11.454
X18.94 Z11.451
X18.766 Z11.45
X18.713
X18.672
X18.659
X3.828
X3.826 Y31.846
Y4.688
X3.828 Y4.686
X30.987
X30.989 Y4.688
Y31.846
X30.987 Y31.848
X22.578
X18.659
X18.637
X18.616
X18.572 Z11.449
X18.486
X18.312 Z11.447
X18.139 Z11.445
X17.966 Z11.441
X17.793 Z11.436
X17.706 Z11.434
X17.619 Z11.431
X17.533 Z11.429
X17.446 Z11.426
X17.36 Z11.423
X17.273 Z11.42
X17.186 Z11.417
X17.1 Z11.414
X17.013 Z11.411
X16.926 Z11.408
X16.84 Z11.405
X16.667 Z11.398
X16.407 Z11.389
X16.32 Z11.386
X16.233 Z11.383
X16.147 Z11.38
X16.06 Z11.377
X15.974 Z11.374
X15.887 Z11.371
X15.8 Z11.369
X15.714 Z11.366
X15.54 Z11.361
X15.367 Z11.357
X15.194 Z11.354
X15.021 Z11.351
X14.847 Z11.35
X14.794
X14.753
X14.74
X3.828
X3.826 Y31.846
Y4.688
X3.828 Y4.686
X30.987
X30.989 Y4.688
Y31.846
X30.987 Y31.848
X18.659
X14.74
X14.718
X14.697
X14.653 Z11.349
X14.567
X14.394 Z11.347
X14.22 Z11.345
X14.047 Z11.341
X13.874 Z11.336
X13.787 Z11.334
X13.701 Z11.331
X13.614 Z11.329
X13.527 Z11.326
X13.441 Z11.323
X13.354 Z11.32
X13.267 Z11.317
X13.181 Z11.314
X13.094 Z11.311
X13.008 Z11.308
X12.921 Z11.305
X12.748 Z11.298
X12.488 Z11.289
X12.401 Z11.286
X12.315 Z11.283
X12.228 Z11.28
X12.141 Z11.277
X12.055 Z11.274
X11.968 Z11.271
X11.881 Z11.269
X11.795 Z11.266
X11.622 Z11.261
X11.448 Z11.257
X11.275 Z11.254
X11.102 Z11.251
X10.929 Z11.25
X10.875
X10.835
X10.821
X3.828
X3.826 Y31.846
Y4.688
X3.828 Y4.686
X30.987
X30.989 Y4.688
Y31.846
X30.987 Y31.848
X14.74
X10.821
X10.799
X10.778
X10.734 Z11.249
X10.648
X10.475 Z11.247
X10.301 Z11.245
X10.128 Z11.241
X9.955 Z11.236
X9.868 Z11.234
X9.782 Z11.231
X9.695 Z11.229
X9.608 Z11.226
X9.522 Z11.223
X9.435 Z11.22
X9.348 Z11.217
X9.262 Z11.214
X9.175 Z11.211
X9.089 Z11.208
X9.002 Z11.205
X8.829 Z11.198
X8.569 Z11.189
X8.482 Z11.186
X8.396 Z11.183
X8.309 Z11.18
X8.222 Z11.177
X8.136 Z11.174
X8.049 Z11.171
X7.962 Z11.169
X7.876 Z11.166
X7.703 Z11.161
X7.529 Z11.157
X7.356 Z11.154
X7.183 Z11.151
X7.01 Z11.15
X6.956
X6.916
X6.902
X3.828
X3.826 Y31.846
Y4.688
X3.828 Y4.686
X30.987
X30.989 Y4.688
Y31.846
X30.987 Y31.848
X10.821
X6.902
X6.881
X6.859
X6.816 Z11.149
X6.729
X6.556 Z11.147
X6.382 Z11.145
X6.209 Z11.141
X6.036 Z11.136
X5.949 Z11.134
X5.863 Z11.131
X5.776 Z11.129
X5.689 Z11.126
X5.603 Z11.123
X5.516 Z11.12
X5.43 Z11.117
X5.343 Z11.114
X5.256 Z11.111
X5.17 Z11.108
X5.083 Z11.105
X4.91 Z11.098
X4.65 Z11.089
X4.563 Z11.086
X4.477 Z11.083
X4.39 Z11.08
X4.303 Z11.077
X4.217 Z11.074
X4.13 Z11.071
X4.044 Z11.069
X3.957 Z11.066
X3.884 Z11.063
X3.839 Z11.062
X3.829
X3.826
Y31.843
Y31.829
Y31.632 Z11.057
Y31.459 Z11.054
Y31.285 Z11.051
Y31.112 Z11.05
Y31.057
Y31.016
Y31.003
Y4.688
X3.828 Y4.686
X30.987
X30.989 Y4.688
Y31.846
X30.987 Y31.848
X6.902
X3.828
X3.826 Y31.846
Y31.003
Y30.981
Y30.959
Y30.916 Z11.049
Y30.829
Y30.656 Z11.047
Y30.483 Z11.045
Y30.31 Z11.041
Y30.136 Z11.036
Y30.05 Z11.034
Y29.963 Z11.031
Y29.877 Z11.029
Y29.79 Z11.026
Y29.703 Z11.023
Y29.617 Z11.02
Y29.53 Z11.017
Y29.443 Z11.014
Y29.357 Z11.011
Y29.27 Z11.008
Y29.184 Z11.005
Y29.01 Z10.998
Y28.75 Z10.989
Y28.664 Z10.986
Y28.577 Z10.983
Y28.491 Z10.98
Y28.404 Z10.977
Y28.317 Z10.974
Y28.231 Z10.971
Y28.144 Z10.969
Y28.058 Z10.966
Y27.884 Z10.961
Y27.711 Z10.957
Y27.538 Z10.954
Y27.365 Z10.951
Y27.191 Z10.95
Y27.138
Y27.097
Y27.084
Y4.688
X3.828 Y4.686
X30.987
X30.989 Y4.688
Y31.846
X30.987 Y31.848
X3.828
X3.826 Y31.846
Y27.084
Y27.062
Y27.041
Y26.997 Z10.949
Y26.911
Y26.737 Z10.947
Y26.564 Z10.945
Y26.391 Z10.941
Y26.218 Z10.936
Y26.131 Z10.934
Y26.044 Z10.931
Y25.958 Z10.929
Y25.871 Z10.926
Y25.784 Z10.923
Y25.698 Z10.92
Y25.611 Z10.917
Y25.525 Z10.914
Y25.438 Z10.911
Y25.351 Z10.908
Y25.265 Z10.905
Y25.091 Z10.898
Y24.832 Z10.889
Y24.745 Z10.886
Y24.658 Z10.883
Y24.572 Z10.88
Y24.485 Z10.877
Y24.398 Z10.874
Y24.312 Z10.871
Y24.225 Z10.869
Y24.139 Z10.866
Y23.965 Z10.861
Y23.792 Z10.857
Y23.619 Z10.854
Y23.446 Z10.851
Y23.272 Z10.85
Y23.219
Y23.178
Y23.165
Y4.688
X3.828 Y4.686
X30.987
X30.989 Y4.688
Y31.846
X30.987 Y31.848
X3.828
X3.826 Y31.846
Y27.084
Y23.165
Y23.143
Y23.122
Y23.078 Z10.849
Y22.992
Y22.818 Z10.847
Y22.645 Z10.845
Y22.472 Z10.841
Y22.299 Z10.836
Y22.212 Z10.834
Y22.125 Z10.831
Y22.039 Z10.829
Y21.952 Z10.826
Y21.866 Z10.823
Y21.779 Z10.82
Y21.692 Z10.817
Y21.606 Z10.814
Y21.519 Z10.811
Y21.432 Z10.808
Y21.346 Z10.805
Y21.173 Z10.798
Y20.913 Z10.789
Y20.826 Z10.786
Y20.739 Z10.783
Y20.653 Z10.78
Y20.566 Z10.777
Y20.48 Z10.774
Y20.393 Z10.771
Y20.306 Z10.769
Y20.22 Z10.766
Y20.046 Z10.761
Y19.873 Z10.757
Y19.7 Z10.754
Y19.527 Z10.751
Y19.353 Z10.75
Y19.3
Y19.259
Y19.246
Y4.688
X3.828 Y4.686
X30.987
X30.989 Y4.688
Y31.846
X30.987 Y31.848
X3.828
X3.826 Y31.846
Y23.165
Y19.246
Y19.224
Y19.203
Y19.159 Z10.749
Y19.073
Y18.899 Z10.747
Y18.726 Z10.745
Y18.553 Z10.741
Y18.38 Z10.736
Y18.293 Z10.734
Y18.207 Z10.731
Y18.12 Z10.729
Y18.033 Z10.726
Y17.947 Z10.723
Y17.86 Z10.72
Y17.773 Z10.717
Y17.687 Z10.714
Y17.6 Z10.711
Y17.514 Z10.708
Y17.427 Z10.705
Y17.254 Z10.698
Y16.994 Z10.689
Y16.907 Z10.686
Y16.821 Z10.683
Y16.734 Z10.68
Y16.647 Z10.677
Y16.561 Z10.674
Y16.474 Z10.671
Y16.387 Z10.669
Y16.301 Z10.666
Y16.128 Z10.661
Y15.954 Z10.657
Y15.781 Z10.654
Y15.608 Z10.651
Y15.435 Z10.65
Y15.381
Y15.341
Y15.327
Y4.688
X3.828 Y4.686
X30.987
X30.989 Y4.688
Y31.846
X30.987 Y31.848
X3.828
X3.826 Y31.846
Y19.246
Y15.327
Y15.305
Y15.284
Y15.24 Z10.649
Y15.154
Y14.981 Z10.647
Y14.807 Z10.645
Y14.634 Z10.641
Y14.461 Z10.636
Y14.374 Z10.634
Y14.288 Z10.631
Y14.201 Z10.629
Y14.114 Z10.626
Y14.028 Z10.623
Y13.941 Z10.62
Y13.854 Z10.617
Y13.768 Z10.614
Y13.681 Z10.611
Y13.595 Z10.608
Y13.508 Z10.605
Y13.335 Z10.598
Y13.075 Z10.589
Y12.988 Z10.586
Y12.902 Z10.583
Y12.815 Z10.58
Y12.728 Z10.577
Y12.642 Z10.574
Y12.555 Z10.571
Y12.468 Z10.569
Y12.382 Z10.566
Y12.209 Z10.561
Y12.035 Z10.557
Y11.862 Z10.554
Y11.689 Z10.551
Y11.516 Z10.55
Y11.462
Y11.422
Y11.408
Y4.688
X3.828 Y4.686
X30.987
X30.989 Y4.688
Y31.846
X30.987 Y31.848
X3.828
X3.826 Y31.846
Y15.327
Y11.408
Y11.387
Y11.365
Y11.322 Z10.549
Y11.235
Y11.062 Z10.547
Y10.888 Z10.545
Y10.715 Z10.541
Y10.542 Z10.536
Y10.455 Z10.534
Y10.369 Z10.531
Y10.282 Z10.529
Y10.195 Z10.526
Y10.109 Z10.523
Y10.022 Z10.52
Y9.936 Z10.517
Y9.849 Z10.514
Y9.762 Z10.511
Y9.676 Z10.508
Y9.589 Z10.505
Y9.416 Z10.498
Y9.156 Z10.489
Y9.069 Z10.486
Y8.983 Z10.483
Y8.896 Z10.48
Y8.809 Z10.477
Y8.723 Z10.474
Y8.636 Z10.471
Y8.55 Z10.469
Y8.463 Z10.466
Y8.29 Z10.461
Y8.116 Z10.457
Y7.943 Z10.454
Y7.77 Z10.451
Y7.597 Z10.45
Y7.543
Y7.503
Y7.489
Y4.688
X3.828 Y4.686
X30.987
X30.989 Y4.688
Y31.846
X30.987 Y31.848
X3.828
X3.826 Y31.846
Y11.408
Y7.489
Y7.468
Y7.446
Y7.403 Z10.449
Y7.316
Y7.143 Z10.447
Y6.97 Z10.445
Y6.796 Z10.441
Y6.623 Z10.436
Y6.536 Z10.434
Y6.45 Z10.431
Y6.363 Z10.429
Y6.277 Z10.426
Y6.19 Z10.423
Y6.103 Z10.42
Y6.017 Z10.417
Y5.93 Z10.414
Y5.843 Z10.411
Y5.757 Z10.408
Y5.67 Z10.405
Y5.497 Z10.398
Y5.237 Z10.389
Y5.15 Z10.386
Y5.064 Z10.383
Y4.977 Z10.38
Y4.891 Z10.377
Y4.804 Z10.374
Y4.717 Z10.371
Y4.69
X3.827 Y4.686
X3.832 Z10.37
X3.839
X3.853
X3.894 Z10.369
X3.969 Z10.366
X4.142 Z10.361
X4.315 Z10.357
X4.489 Z10.354
X4.662 Z10.351
X4.835 Z10.35
X4.895
X4.94
X4.955
X30.987
X30.989 Y4.688
Y31.846
X30.987 Y31.848
X3.828
X3.826 Y31.846
Y7.489
Y4.688
X3.828 Y4.686
X4.955
X4.976
X4.998
X5.041 Z10.349
X5.128
X5.301 Z10.347
X5.474 Z10.345
X5.648 Z10.341
X5.821 Z10.336
X5.908 Z10.334
X5.994 Z10.331
X6.081 Z10.329
X6.167 Z10.326
X6.254 Z10.323
X6.341 Z10.32
X6.427 Z10.317
X6.514 Z10.314
X6.601 Z10.311
X6.687 Z10.308
X6.774 Z10.305
X6.947 Z10.298
X7.207 Z10.289
X7.294 Z10.286
X7.38 Z10.283
X7.467 Z10.28
X7.553 Z10.277
X7.64 Z10.274
X7.727 Z10.271
X7.813 Z10.269
X7.9 Z10.266
X8.073 Z10.261
X8.246 Z10.257
X8.42 Z10.254
X8.593 Z10.251
X8.766 Z10.25
X8.82
X8.86
X8.874
X30.987
X30.989 Y4.688
Y31.846
X30.987 Y31.848
X3.828
X3.826 Y31.846
Y4.688
X3.828 Y4.686
X8.874
X8.895
X8.917
X8.96 Z10.249
X9.047
X9.22 Z10.247
X9.393 Z10.245
X9.567 Z10.241
X9.74 Z10.236
X9.826 Z10.234
X9.913 Z10.231
X10. Z10.229
X10.086 Z10.226
X10.173 Z10.223
X10.26 Z10.22
X10.346 Z10.217
X10.433 Z10.214
X10.519 Z10.211
X10.606 Z10.208
X10.693 Z10.205
X10.866 Z10.198
X11.126 Z10.189
X11.212 Z10.186
X11.299 Z10.183
X11.386 Z10.18
X11.472 Z10.177
X11.559 Z10.174
X11.646 Z10.171
X11.732 Z10.169
X11.819 Z10.166
X11.992 Z10.161
X12.165 Z10.157
X12.339 Z10.154
X12.512 Z10.151
X12.685 Z10.15
X12.739
X12.779
X12.793
X30.987
X30.989 Y4.688
Y31.846
X30.987 Y31.848
X3.828
X3.826 Y31.846
Y4.688
X3.828 Y4.686
X12.793
X12.814
X12.836
X12.879 Z10.149
X12.966
X13.139 Z10.147
X13.312 Z10.145
X13.486 Z10.141
X13.659 Z10.136
X13.745 Z10.134
X13.832 Z10.131
X13.919 Z10.129
X14.005 Z10.126
X14.092 Z10.123
X14.179 Z10.12
X14.265 Z10.117
X14.352 Z10.114
X14.438 Z10.111
X14.525 Z10.108
X14.612 Z10.105
X14.785 Z10.098
X15.045 Z10.089
X15.131 Z10.086
X15.218 Z10.083
X15.305 Z10.08
X15.391 Z10.077
X15.478 Z10.074
X15.565 Z10.071
X15.651 Z10.069
X15.738 Z10.066
X15.911 Z10.061
X16.084 Z10.057
X16.258 Z10.054
X16.431 Z10.051
X16.604 Z10.05
X16.658
X16.698
X16.711
X30.987
X30.989 Y4.688
Y31.846
X30.987 Y31.848
X3.828
X3.826 Y31.846
Y4.688
X3.828 Y4.686
X16.711
X16.733
X16.755
X16.798 Z10.049
X16.885
X17.058 Z10.047
X17.231 Z10.045
X17.404 Z10.041
X17.578 Z10.036
X17.664 Z10.034
X17.751 Z10.031
X17.838 Z10.029
X17.924 Z10.026
X18.011 Z10.023
X18.097 Z10.02
X18.184 Z10.017
X18.271 Z10.014
X18.357 Z10.011
X18.444 Z10.008
X18.531 Z10.005
X18.704 Z9.998
X18.964 Z9.989
X19.05 Z9.986
X19.137 Z9.983
X19.224 Z9.98
X19.31 Z9.977
X19.397 Z9.974
X19.483 Z9.971
X19.57 Z9.969
X19.657 Z9.966
X19.83 Z9.961
X20.003 Z9.957
X20.176 Z9.954
X20.35 Z9.951
X20.523 Z9.95
X20.577
X20.617
X20.63
X30.987
X30.989 Y4.688
Y31.846
X30.987 Y31.848
X3.828
X3.826 Y31.846
Y4.688
X3.828 Y4.686
X20.63
X20.652
X20.674
X20.717 Z9.949
X20.804
X20.977 Z9.947
X21.15 Z9.945
X21.323 Z9.941
X21.497 Z9.936
X21.583 Z9.934
X21.67 Z9.931
X21.756 Z9.929
X21.843 Z9.926
X21.93 Z9.923
X22.016 Z9.92
X22.103 Z9.917
X22.19 Z9.914
X22.276 Z9.911
X22.363 Z9.908
X22.449 Z9.905
X22.623 Z9.898
X22.883 Z9.889
X22.969 Z9.886
X23.056 Z9.883
X23.142 Z9.88
X23.229 Z9.877
X23.316 Z9.874
X23.402 Z9.871
X23.489 Z9.869
X23.576 Z9.866
X23.749 Z9.861
X23.922 Z9.857
X24.095 Z9.854
X24.269 Z9.851
X24.442 Z9.85
X24.496
X24.536
X24.549
X30.987
X30.989 Y4.688
Y31.846
X30.987 Y31.848
X3.828
X3.826 Y31.846
Y4.688
X3.828 Y4.686
X24.549
X24.571
X24.593
X24.636 Z9.849
X24.723
X24.896 Z9.847
X25.069 Z9.845
X25.242 Z9.841
X25.416 Z9.836
X25.502 Z9.834
X25.589 Z9.831
X25.675 Z9.829
X25.762 Z9.826
X25.849 Z9.823
X25.935 Z9.82
X26.022 Z9.817
X26.109 Z9.814
X26.195 Z9.811
X26.282 Z9.808
X26.368 Z9.805
X26.542 Z9.798
X26.802 Z9.789
X26.888 Z9.786
X26.975 Z9.783
X27.061 Z9.78
X27.148 Z9.777
X27.235 Z9.774
X27.321 Z9.771
X27.408 Z9.769
X27.495 Z9.766
X27.668 Z9.761
X27.841 Z9.757
X28.014 Z9.754
X28.187 Z9.751
X28.361 Z9.75
X28.414
X28.455
X28.468
X30.987
X30.989 Y4.688
Y31.846
X30.987 Y31.848
X3.828
X3.826 Y31.846
Y4.688
X3.828 Y4.686
X28.468
X28.49
X28.511
X28.555 Z9.749
X28.641
X28.815 Z9.747
X28.988 Z9.745
X29.161 Z9.741
X29.334 Z9.736
X29.421 Z9.734
X29.508 Z9.731
X29.594 Z9.729
X29.681 Z9.726
X29.768 Z9.723
X29.854 Z9.72
X29.941 Z9.717
X30.027 Z9.714
X30.114 Z9.711
X30.201 Z9.708
X30.287 Z9.705
X30.461 Z9.698
X30.72 Z9.689
X30.807 Z9.686
X30.894 Z9.683
X30.974 Z9.681
X30.985
X30.989 Y4.688
Y4.702
Y4.724 Z9.68
Y4.765 Z9.679
Y4.852 Z9.676
Y4.938 Z9.673
Y5.025 Z9.67
Y5.112 Z9.667
Y5.198 Z9.665
Y5.285 Z9.662
Y5.458 Z9.658
Y5.631 Z9.654
Y5.805 Z9.652
Y5.978 Z9.65
Y6.056
Y6.096
Y6.13
Y6.135
Y31.846
X30.987 Y31.848
X3.828
X3.826 Y31.846
Y4.688
X3.828 Y4.686
X30.987
X30.989 Y4.688
Y6.135
Y6.157
Y6.178
Y6.222 Z9.649
Y6.308
Y6.482 Z9.647
Y6.655 Z9.645
Y6.828 Z9.641
Y7.001 Z9.636
Y7.088 Z9.634
Y7.175 Z9.631
Y7.261 Z9.629
Y7.348 Z9.626
Y7.434 Z9.623
Y7.521 Z9.62
Y7.608 Z9.617
Y7.694 Z9.614
Y7.781 Z9.611
Y7.868 Z9.608
Y7.954 Z9.605
Y8.127 Z9.598
Y8.387 Z9.589
Y8.474 Z9.586
Y8.561 Z9.583
Y8.647 Z9.58
Y8.734 Z9.577
Y8.82 Z9.574
Y8.907 Z9.571
Y8.994 Z9.569
Y9.08 Z9.566
Y9.253 Z9.561
Y9.427 Z9.557
Y9.6 Z9.554
Y9.773 Z9.551
Y9.946 Z9.55
Y10.
Y10.04
Y10.054
Y31.846
X30.987 Y31.848
X3.828
X3.826 Y31.846
Y4.688
X3.828 Y4.686
X30.987
X30.989 Y4.688
Y10.054
Y10.076
Y10.097
Y10.141 Z9.549
Y10.227
Y10.4 Z9.547
Y10.574 Z9.545
Y10.747 Z9.541
Y10.92 Z9.536
Y11.007 Z9.534
Y11.093 Z9.531
Y11.18 Z9.529
Y11.267 Z9.526
Y11.353 Z9.523
Y11.44 Z9.52
Y11.527 Z9.517
Y11.613 Z9.514
Y11.7 Z9.511
Y11.786 Z9.508
Y11.873 Z9.505
Y12.046 Z9.498
Y12.306 Z9.489
Y12.393 Z9.486
Y12.479 Z9.483
Y12.566 Z9.48
Y12.653 Z9.477
Y12.739 Z9.474
Y12.826 Z9.471
Y12.913 Z9.469
Y12.999 Z9.466
Y13.172 Z9.461
Y13.346 Z9.457
Y13.519 Z9.454
Y13.692 Z9.451
Y13.865 Z9.45
Y13.919
Y13.959
Y13.973
Y31.846
X30.987 Y31.848
X3.828
X3.826 Y31.846
Y4.688
X3.828 Y4.686
X30.987
X30.989 Y4.688
Y10.054
Y13.973
Y13.994
Y14.016
Y14.059 Z9.449
Y14.146
Y14.319 Z9.447
Y14.493 Z9.445
Y14.666 Z9.441
Y14.839 Z9.436
Y14.926 Z9.434
Y15.012 Z9.431
Y15.099 Z9.429
Y15.186 Z9.426
Y15.272 Z9.423
Y15.359 Z9.42
Y15.445 Z9.417
Y15.532 Z9.414
Y15.619 Z9.411
Y15.705 Z9.408
Y15.792 Z9.405
Y15.965 Z9.398
Y16.225 Z9.389
Y16.312 Z9.386
Y16.398 Z9.383
Y16.485 Z9.38
Y16.572 Z9.377
Y16.658 Z9.374
Y16.745 Z9.371
Y16.831 Z9.369
Y16.918 Z9.366
Y17.091 Z9.361
Y17.265 Z9.357
Y17.438 Z9.354
Y17.611 Z9.351
Y17.784 Z9.35
Y17.838
Y17.878
Y17.892
Y31.846
X30.987 Y31.848
X3.828
X3.826 Y31.846
Y4.688
X3.828 Y4.686
X30.987
X30.989 Y4.688
Y13.973
Y17.892
Y17.913
Y17.935
Y17.978 Z9.349
Y18.065
Y18.238 Z9.347
Y18.412 Z9.345
Y18.585 Z9.341
Y18.758 Z9.336
Y18.845 Z9.334
Y18.931 Z9.331
Y19.018 Z9.329
Y19.104 Z9.326
Y19.191 Z9.323
Y19.278 Z9.32
Y19.364 Z9.317
Y19.451 Z9.314
Y19.538 Z9.311
Y19.624 Z9.308
Y19.711 Z9.305
Y19.884 Z9.298
Y20.144 Z9.289
Y20.231 Z9.286
Y20.317 Z9.283
Y20.404 Z9.28
Y20.49 Z9.277
Y20.577 Z9.274
Y20.664 Z9.271
Y20.75 Z9.269
Y20.837 Z9.266
Y21.01 Z9.261
Y21.183 Z9.257
Y21.357 Z9.254
Y21.53 Z9.251
Y21.703 Z9.25
Y21.757
Y21.797
Y21.811
Y31.846
X30.987 Y31.848
X3.828
X3.826 Y31.846
Y4.688
X3.828 Y4.686
X30.987
X30.989 Y4.688
Y17.892
Y21.811
Y21.832
Y21.854
Y21.897 Z9.249
Y21.984
Y22.157 Z9.247
Y22.33 Z9.245
Y22.504 Z9.241
Y22.677 Z9.236
Y22.764 Z9.234
Y22.85 Z9.231
Y22.937 Z9.229
Y23.023 Z9.226
Y23.11 Z9.223
Y23.197 Z9.22
Y23.283 Z9.217
Y23.37 Z9.214
Y23.457 Z9.211
Y23.543 Z9.208
Y23.63 Z9.205
Y23.803 Z9.198
Y24.063 Z9.189
Y24.15 Z9.186
Y24.236 Z9.183
Y24.323 Z9.18
Y24.409 Z9.177
Y24.496 Z9.174
Y24.583 Z9.171
Y24.669 Z9.169
Y24.756 Z9.166
Y24.929 Z9.161
Y25.102 Z9.157
Y25.276 Z9.154
Y25.449 Z9.151
Y25.622 Z9.15
Y25.676
Y25.716
Y25.73
Y31.846
X30.987 Y31.848
X3.828
X3.826 Y31.846
Y4.688
X3.828 Y4.686
X30.987
X30.989 Y4.688
Y21.811
Y25.73
Y25.751
Y25.773
Y25.816 Z9.149
Y25.903
Y26.076 Z9.147
Y26.249 Z9.145
Y26.423 Z9.141
Y26.596 Z9.136
Y26.682 Z9.134
Y26.769 Z9.131
Y26.856 Z9.129
Y26.942 Z9.126
Y27.029 Z9.123
Y27.116 Z9.12
Y27.202 Z9.117
Y27.289 Z9.114
Y27.375 Z9.111
Y27.462 Z9.108
Y27.549 Z9.105
Y27.722 Z9.098
Y27.982 Z9.089
Y28.068 Z9.086
Y28.155 Z9.083
Y28.242 Z9.08
Y28.328 Z9.077
Y28.415 Z9.074
Y28.502 Z9.071
Y28.588 Z9.069
Y28.675 Z9.066
Y28.848 Z9.061
Y29.021 Z9.057
Y29.195 Z9.054
Y29.368 Z9.051
Y29.541 Z9.05
Y29.595
Y29.635
Y29.648
Y31.846
X30.987 Y31.848
X3.828
X3.826 Y31.846
Y4.688
X3.828 Y4.686
X30.987
X30.989 Y4.688
Y25.73
Y29.648
Y29.67
Y29.692
Y29.735 Z9.049
Y29.822
Y29.995 Z9.047
Y30.168 Z9.045
Y30.341 Z9.041
Y30.515 Z9.036
Y30.601 Z9.034
Y30.688 Z9.031
Y30.775 Z9.029
Y30.861 Z9.026
Y30.948 Z9.023
Y31.034 Z9.02
Y31.121 Z9.017
Y31.208 Z9.014
Y31.294 Z9.011
Y31.381 Z9.008
Y31.468 Z9.005
Y31.641 Z8.998
Y31.727 Z8.995
Y31.8 Z8.993
Y31.837 Z8.992
Y31.844
Y31.848
X30.984
X30.935 Z8.991
X30.849 Z8.988
X30.762 Z8.985
X30.675 Z8.982
X30.589 Z8.979
X30.502 Z8.976
X30.415 Z8.973
X30.329 Z8.97
X30.242 Z8.967
X30.156 Z8.964
X30.069 Z8.962
X29.896 Z8.958
X29.722 Z8.954
X29.549 Z8.952
X29.376 Z8.95
X29.302
X29.265
X29.228
X3.828
X3.826 Y31.846
Y4.688
X3.828 Y4.686
X30.987
X30.989 Y4.688
Y29.648
Y31.846
X30.987 Y31.848
X29.228
X29.206
X29.185
X29.141 Z8.949
X29.055
X28.881 Z8.947
X28.708 Z8.945
X28.535 Z8.941
X28.362 Z8.936
X28.275 Z8.934
X28.188 Z8.931
X28.102 Z8.929
X28.015 Z8.926
X27.929 Z8.923
X27.842 Z8.92
X27.755 Z8.917
X27.669 Z8.914
X27.582 Z8.911
X27.495 Z8.908
X27.409 Z8.905
X27.236 Z8.898
X26.976 Z8.889
X26.889 Z8.886
X26.802 Z8.883
X26.716 Z8.88
X26.629 Z8.877
X26.543 Z8.874
X26.456 Z8.871
X26.369 Z8.869
X26.283 Z8.866
X26.109 Z8.861
X25.936 Z8.857
X25.763 Z8.854
X25.59 Z8.851
X25.416 Z8.85
X25.363
X25.322
X25.309
X3.828
X3.826 Y31.846
Y4.688
X3.828 Y4.686
X30.987
X30.989 Y4.688
Y31.846
X30.987 Y31.848
X25.309
X25.287
X25.266
X25.222 Z8.849
X25.136
X24.963 Z8.847
X24.789 Z8.845
X24.616 Z8.841
X24.443 Z8.836
X24.356 Z8.834
X24.27 Z8.831
X24.183 Z8.829
X24.096 Z8.826
X24.01 Z8.823
X23.923 Z8.82
X23.836 Z8.817
X23.75 Z8.814
X23.663 Z8.811
X23.577 Z8.808
X23.49 Z8.805
X23.317 Z8.798
X23.057 Z8.789
X22.97 Z8.786
X22.884 Z8.783
X22.797 Z8.78
X22.71 Z8.777
X22.624 Z8.774
X22.537 Z8.771
X22.45 Z8.769
X22.364 Z8.766
X22.191 Z8.761
X22.017 Z8.757
X21.844 Z8.754
X21.671 Z8.751
X21.498 Z8.75
X21.444
X21.404
X21.39
X3.828
X3.826 Y31.846
Y4.688
X3.828 Y4.686
X30.987
X30.989 Y4.688
Y31.846
X30.987 Y31.848
X25.309
X21.39
X21.368
X21.347
X21.304 Z8.749
X21.217
X21.044 Z8.747
X20.87 Z8.745
X20.697 Z8.741
X20.524 Z8.736
X20.437 Z8.734
X20.351 Z8.731
X20.264 Z8.729
X20.177 Z8.726
X20.091 Z8.723
X20.004 Z8.72
X19.918 Z8.717
X19.831 Z8.714
X19.744 Z8.711
X19.658 Z8.708
X19.571 Z8.705
X19.398 Z8.698
X19.138 Z8.689
X19.051 Z8.686
X18.965 Z8.683
X18.878 Z8.68
X18.791 Z8.677
X18.705 Z8.674
X18.618 Z8.671
X18.532 Z8.669
X18.445 Z8.666
X18.272 Z8.661
X18.098 Z8.657
X17.925 Z8.654
X17.752 Z8.651
X17.579 Z8.65
X17.525
X17.485
X17.471
X3.828
X3.826 Y31.846
Y4.688
X3.828 Y4.686
X30.987
X30.989 Y4.688
Y31.846
X30.987 Y31.848
X21.39
X17.471
X17.45
X17.428
X17.385 Z8.649
X17.298
X17.125 Z8.647
X16.951 Z8.645
X16.778 Z8.641
X16.605 Z8.636
X16.518 Z8.634
X16.432 Z8.631
X16.345 Z8.629
X16.258 Z8.626
X16.172 Z8.623
X16.085 Z8.62
X15.999 Z8.617
X15.912 Z8.614
X15.825 Z8.611
X15.739 Z8.608
X15.652 Z8.605
X15.479 Z8.598
X15.219 Z8.589
X15.132 Z8.586
X15.046 Z8.583
X14.959 Z8.58
X14.872 Z8.577
X14.786 Z8.574
X14.699 Z8.571
X14.613 Z8.569
X14.526 Z8.566
X14.353 Z8.561
X14.179 Z8.557
X14.006 Z8.554
X13.833 Z8.551
X13.66 Z8.55
X13.606
X13.566
X13.552
X3.828
X3.826 Y31.846
Y4.688
X3.828 Y4.686
X30.987
X30.989 Y4.688
Y31.846
X30.987 Y31.848
X17.471
X13.552
X13.531
X13.509
X13.466 Z8.549
X13.379
X13.206 Z8.547
X13.033 Z8.545
X12.859 Z8.541
X12.686 Z8.536
X12.599 Z8.534
X12.513 Z8.531
X12.426 Z8.529
X12.34 Z8.526
X12.253 Z8.523
X12.166 Z8.52
X12.08 Z8.517
X11.993 Z8.514
X11.906 Z8.511
X11.82 Z8.508
X11.733 Z8.505
X11.56 Z8.498
X11.3 Z8.489
X11.213 Z8.486
X11.127 Z8.483
X11.04 Z8.48
X10.954 Z8.477
X10.867 Z8.474
X10.78 Z8.471
X10.694 Z8.469
X10.607 Z8.466
X10.434 Z8.461
X10.261 Z8.457
X10.087 Z8.454
X9.914 Z8.451
X9.741 Z8.45
X9.687
X9.647
X9.633
X3.828
X3.826 Y31.846
Y4.688
X3.828 Y4.686
X30.987
X30.989 Y4.688
Y31.846
X30.987 Y31.848
X13.552
X9.633
X9.612
X9.59
X9.547 Z8.449
X9.46
X9.287 Z8.447
X9.114 Z8.445
X8.94 Z8.441
X8.767 Z8.436
X8.681 Z8.434
X8.594 Z8.431
X8.507 Z8.429
X8.421 Z8.426
X8.334 Z8.423
X8.247 Z8.42
X8.161 Z8.417
X8.074 Z8.414
X7.988 Z8.411
X7.901 Z8.408
X7.814 Z8.405
X7.641 Z8.398
X7.381 Z8.389
X7.295 Z8.386
X7.208 Z8.383
X7.121 Z8.38
X7.035 Z8.377
X6.948 Z8.374
X6.861 Z8.371
X6.775 Z8.369
X6.688 Z8.366
X6.515 Z8.361
X6.342 Z8.357
X6.168 Z8.354
X5.995 Z8.351
X5.822 Z8.35
X5.768
X5.728
X5.714
X3.828
X3.826 Y31.846
Y4.688
X3.828 Y4.686
X30.987
X30.989 Y4.688
Y31.846
X30.987 Y31.848
X9.633
X5.714
X5.693
X5.671
X5.628 Z8.349
X5.541
X5.368 Z8.347
X5.195 Z8.345
X5.021 Z8.341
X4.848 Z8.336
X4.762 Z8.334
X4.675 Z8.331
X4.588 Z8.329
X4.502 Z8.326
X4.415 Z8.323
X4.328 Z8.32
X4.242 Z8.317
X4.155 Z8.314
X4.069 Z8.311
X3.982 Z8.308
X3.903 Z8.305
X3.862 Z8.303
X3.839
X3.832
X3.827 Z8.302
X3.826 Y31.844
Y31.83
Y31.484 Z8.29
Y31.397 Z8.287
Y31.31 Z8.284
Y31.224 Z8.281
Y31.137 Z8.278
Y31.05 Z8.275
Y30.964 Z8.272
Y30.877 Z8.269
Y30.791 Z8.266
Y30.617 Z8.261
Y30.444 Z8.257
Y30.271 Z8.254
Y30.098 Z8.251
Y29.924 Z8.25
Y29.863
Y29.816
Y29.801
Y4.688
X3.828 Y4.686
X30.987
X30.989 Y4.688
Y31.846
X30.987 Y31.848
X5.714
X3.828
X3.826 Y31.846
Y29.801
Y29.779
Y29.758
Y29.714 Z8.249
Y29.628
Y29.455 Z8.247
Y29.281 Z8.245
Y29.108 Z8.241
Y28.935 Z8.236
Y28.848 Z8.234
Y28.762 Z8.231
Y28.675 Z8.229
Y28.588 Z8.226
Y28.502 Z8.223
Y28.415 Z8.22
Y28.328 Z8.217
Y28.242 Z8.214
Y28.155 Z8.211
Y28.069 Z8.208
Y27.982 Z8.205
Y27.809 Z8.198
Y27.549 Z8.189
Y27.462 Z8.186
Y27.376 Z8.183
Y27.289 Z8.18
Y27.202 Z8.177
Y27.116 Z8.174
Y27.029 Z8.171
Y26.942 Z8.169
Y26.856 Z8.166
Y26.683 Z8.161
Y26.509 Z8.157
Y26.336 Z8.154
Y26.163 Z8.151
Y25.99 Z8.15
Y25.936
Y25.896
Y25.882
Y4.688
X3.828 Y4.686
X30.987
X30.989 Y4.688
Y31.846
X30.987 Y31.848
X3.828
X3.826 Y31.846
Y25.882
Y25.86
Y25.839
Y25.796 Z8.149
Y25.709
Y25.536 Z8.147
Y25.362 Z8.145
Y25.189 Z8.141
Y25.016 Z8.136
Y24.929 Z8.134
Y24.843 Z8.131
Y24.756 Z8.129
Y24.669 Z8.126
Y24.583 Z8.123
Y24.496 Z8.12
Y24.41 Z8.117
Y24.323 Z8.114
Y24.236 Z8.111
Y24.15 Z8.108
Y24.063 Z8.105
Y23.89 Z8.098
Y23.63 Z8.089
Y23.543 Z8.086
Y23.457 Z8.083
Y23.37 Z8.08
Y23.283 Z8.077
Y23.197 Z8.074
Y23.11 Z8.071
Y23.024 Z8.069
Y22.937 Z8.066
Y22.764 Z8.061
Y22.59 Z8.057
Y22.417 Z8.054
Y22.244 Z8.051
Y22.071 Z8.05
Y22.017
Y21.977
Y21.963
Y4.688
X3.828 Y4.686
X30.987
X30.989 Y4.688
Y31.846
X30.987 Y31.848
X3.828
X3.826 Y31.846
Y25.882
Y21.963
Y21.942
Y21.92
Y21.877 Z8.049
Y21.79
Y21.617 Z8.047
Y21.443 Z8.045
Y21.27 Z8.041
Y21.097 Z8.036
Y21.01 Z8.034
Y20.924 Z8.031
Y20.837 Z8.029
Y20.75 Z8.026
Y20.664 Z8.023
Y20.577 Z8.02
Y20.491 Z8.017
Y20.404 Z8.014
Y20.317 Z8.011
Y20.231 Z8.008
Y20.144 Z8.005
Y19.971 Z7.998
Y19.711 Z7.989
Y19.624 Z7.986
Y19.538 Z7.983
Y19.451 Z7.98
Y19.364 Z7.977
Y19.278 Z7.974
Y19.191 Z7.971
Y19.105 Z7.969
Y19.018 Z7.966
Y18.845 Z7.961
Y18.671 Z7.957
Y18.498 Z7.954
Y18.325 Z7.951
Y18.152 Z7.95
Y18.098
Y18.058
Y18.044
Y4.688
X3.828 Y4.686
X30.987
X30.989 Y4.688
Y31.846
X30.987 Y31.848
X3.828
X3.826 Y31.846
Y21.963
Y18.044
Y18.023
Y18.001
Y17.958 Z7.949
Y17.871
Y17.698 Z7.947
Y17.525 Z7.945
Y17.351 Z7.941
Y17.178 Z7.936
Y17.091 Z7.934
Y17.005 Z7.931
Y16.918 Z7.929
Y16.832 Z7.926
Y16.745 Z7.923
Y16.658 Z7.92
Y16.572 Z7.917
Y16.485 Z7.914
Y16.398 Z7.911
Y16.312 Z7.908
Y16.225 Z7.905
Y16.052 Z7.898
Y15.792 Z7.889
Y15.705 Z7.886
Y15.619 Z7.883
Y15.532 Z7.88
Y15.446 Z7.877
Y15.359 Z7.874
Y15.272 Z7.871
Y15.186 Z7.869
Y15.099 Z7.866
Y14.926 Z7.861
Y14.753 Z7.857
Y14.579 Z7.854
Y14.406 Z7.851
Y14.233 Z7.85
Y14.179
Y14.139
Y14.125
Y4.688
X3.828 Y4.686
X30.987
X30.989 Y4.688
Y31.846
X30.987 Y31.848
X3.828
X3.826 Y31.846
Y18.044
Y14.125
Y14.104
Y14.082
Y14.039 Z7.849
Y13.952
Y13.779 Z7.847
Y13.606 Z7.845
Y13.432 Z7.841
Y13.259 Z7.836
Y13.173 Z7.834
Y13.086 Z7.831
Y12.999 Z7.829
Y12.913 Z7.826
Y12.826 Z7.823
Y12.739 Z7.82
Y12.653 Z7.817
Y12.566 Z7.814
Y12.48 Z7.811
Y12.393 Z7.808
Y12.306 Z7.805
Y12.133 Z7.798
Y11.873 Z7.789
Y11.787 Z7.786
Y11.7 Z7.783
Y11.613 Z7.78
Y11.527 Z7.777
Y11.44 Z7.774
Y11.353 Z7.771
Y11.267 Z7.769
Y11.18 Z7.766
Y11.007 Z7.761
Y10.834 Z7.757
Y10.66 Z7.754
Y10.487 Z7.751
Y10.314 Z7.75
Y10.26
Y10.22
Y10.206
Y4.688
X3.828 Y4.686
X30.987
X30.989 Y4.688
Y31.846
X30.987 Y31.848
X3.828
X3.826 Y31.846
Y14.125
Y10.206
Y10.185
Y10.163
Y10.12 Z7.749
Y10.033
Y9.86 Z7.747
Y9.687 Z7.745
Y9.513 Z7.741
Y9.34 Z7.736
Y9.254 Z7.734
Y9.167 Z7.731
Y9.08 Z7.729
Y8.994 Z7.726
Y8.907 Z7.723
Y8.82 Z7.72
Y8.734 Z7.717
Y8.647 Z7.714
Y8.561 Z7.711
Y8.474 Z7.708
Y8.387 Z7.705
Y8.214 Z7.698
Y7.954 Z7.689
Y7.868 Z7.686
Y7.781 Z7.683
Y7.694 Z7.68
Y7.608 Z7.677
Y7.521 Z7.674
Y7.434 Z7.671
Y7.348 Z7.669
Y7.261 Z7.666
Y7.088 Z7.661
Y6.915 Z7.657
Y6.741 Z7.654
Y6.568 Z7.651
Y6.395 Z7.65
Y6.341
Y6.301
Y6.288
Y4.688
X3.828 Y4.686
X30.987
X30.989 Y4.688
Y31.846
X30.987 Y31.848
X3.828
X3.826 Y31.846
Y10.206
Y6.288
Y6.266
Y6.244
Y6.201 Z7.649
Y6.114
Y5.941 Z7.647
Y5.768 Z7.645
Y5.595 Z7.641
Y5.421 Z7.636
Y5.335 Z7.634
Y5.248 Z7.631
Y5.161 Z7.629
Y5.075 Z7.626
Y4.988 Z7.623
Y4.902 Z7.62
Y4.815 Z7.617
Y4.728 Z7.614
Y4.705 Z7.613
Y4.69
X3.828 Y4.686
X3.833
X3.84 Z7.612
X3.885 Z7.611
X3.958 Z7.609
X4.044 Z7.606
X4.218 Z7.6
X4.478 Z7.591
X4.564 Z7.588
X4.651 Z7.585
X4.737 Z7.581
X4.824 Z7.578
X4.911 Z7.575
X4.997 Z7.572
X5.084 Z7.57
X5.171 Z7.567
X5.344 Z7.562
X5.517 Z7.558
X5.69 Z7.554
X5.864 Z7.552
X6.037 Z7.55
X6.107
X6.143
X6.178
X30.987
X30.989 Y4.688
Y31.846
X30.987 Y31.848
X3.828
X3.826 Y31.846
Y6.288
Y4.688
X3.828 Y4.686
X6.178
X6.2
X6.221
X6.265 Z7.549
X6.351
X6.525 Z7.547
X6.698 Z7.545
X6.871 Z7.541
X7.044 Z7.536
X7.131 Z7.534
X7.218 Z7.531
X7.304 Z7.529
X7.391 Z7.526
X7.477 Z7.523
X7.564 Z7.52
X7.651 Z7.517
X7.737 Z7.514
X7.824 Z7.511
X7.911 Z7.508
X7.997 Z7.505
X8.17 Z7.498
X8.43 Z7.489
X8.517 Z7.486
X8.604 Z7.483
X8.69 Z7.48
X8.777 Z7.477
X8.863 Z7.474
X8.95 Z7.471
X9.037 Z7.469
X9.123 Z7.466
X9.297 Z7.461
X9.47 Z7.457
X9.643 Z7.454
X9.816 Z7.451
X9.99 Z7.45
X10.043
X10.084
X10.097
X30.987
X30.989 Y4.688
Y31.846
X30.987 Y31.848
X3.828
X3.826 Y31.846
Y4.688
X3.828 Y4.686
X10.097
X10.119
X10.14
X10.184 Z7.449
X10.27
X10.444 Z7.447
X10.617 Z7.445
X10.79 Z7.441
X10.963 Z7.436
X11.05 Z7.434
X11.137 Z7.431
X11.223 Z7.429
X11.31 Z7.426
X11.396 Z7.423
X11.483 Z7.42
X11.57 Z7.417
X11.656 Z7.414
X11.743 Z7.411
X11.83 Z7.408
X11.916 Z7.405
X12.089 Z7.398
X12.349 Z7.389
X12.436 Z7.386
X12.523 Z7.383
X12.609 Z7.38
X12.696 Z7.377
X12.782 Z7.374
X12.869 Z7.371
X12.956 Z7.369
X13.042 Z7.366
X13.215 Z7.361
X13.389 Z7.357
X13.562 Z7.354
X13.735 Z7.351
X13.908 Z7.35
X13.962
X14.002
X14.016
X30.987
X30.989 Y4.688
Y31.846
X30.987 Y31.848
X3.828
X3.826 Y31.846
Y4.688
X3.828 Y4.686
X14.016
X14.038
X14.059
X14.103 Z7.349
X14.189
X14.362 Z7.347
X14.536 Z7.345
X14.709 Z7.341
X14.882 Z7.336
X14.969 Z7.334
X15.055 Z7.331
X15.142 Z7.329
X15.229 Z7.326
X15.315 Z7.323
X15.402 Z7.32
X15.489 Z7.317
X15.575 Z7.314
X15.662 Z7.311
X15.748 Z7.308
X15.835 Z7.305
X16.008 Z7.298
X16.268 Z7.289
X16.355 Z7.286
X16.441 Z7.283
X16.528 Z7.28
X16.615 Z7.277
X16.701 Z7.274
X16.788 Z7.271
X16.875 Z7.269
X16.961 Z7.266
X17.134 Z7.261
X17.308 Z7.257
X17.481 Z7.254
X17.654 Z7.251
X17.827 Z7.25
X17.881
X17.921
X17.935
X30.987
X30.989 Y4.688
Y31.846
X30.987 Y31.848
X3.828
X3.826 Y31.846
Y4.688
X3.828 Y4.686
X17.935
X17.956
X17.978
X18.021 Z7.249
X18.108
X18.281 Z7.247
X18.455 Z7.245
X18.628 Z7.241
X18.801 Z7.236
X18.888 Z7.234
X18.974 Z7.231
X19.061 Z7.229
X19.148 Z7.226
X19.234 Z7.223
X19.321 Z7.22
X19.407 Z7.217
X19.494 Z7.214
X19.581 Z7.211
X19.667 Z7.208
X19.754 Z7.205
X19.927 Z7.198
X20.187 Z7.189
X20.274 Z7.186
X20.36 Z7.183
X20.447 Z7.18
X20.534 Z7.177
X20.62 Z7.174
X20.707 Z7.171
X20.793 Z7.169
X20.88 Z7.166
X21.053 Z7.161
X21.227 Z7.157
X21.4 Z7.154
X21.573 Z7.151
X21.746 Z7.15
X21.8
X21.84
X21.854
X30.987
X30.989 Y4.688
Y31.846
X30.987 Y31.848
X3.828
X3.826 Y31.846
Y4.688
X3.828 Y4.686
X21.854
X21.875
X21.897
X21.94 Z7.149
X22.027
X22.2 Z7.147
X22.374 Z7.145
X22.547 Z7.141
X22.72 Z7.136
X22.807 Z7.134
X22.893 Z7.131
X22.98 Z7.129
X23.066 Z7.126
X23.153 Z7.123
X23.24 Z7.12
X23.326 Z7.117
X23.413 Z7.114
X23.5 Z7.111
X23.586 Z7.108
X23.673 Z7.105
X23.846 Z7.098
X24.106 Z7.089
X24.193 Z7.086
X24.279 Z7.083
X24.366 Z7.08
X24.452 Z7.077
X24.539 Z7.074
X24.626 Z7.071
X24.712 Z7.069
X24.799 Z7.066
X24.972 Z7.061
X25.145 Z7.057
X25.319 Z7.054
X25.492 Z7.051
X25.665 Z7.05
X25.719
X25.759
X25.773
X30.987
X30.989 Y4.688
Y31.846
X30.987 Y31.848
X3.828
X3.826 Y31.846
Y4.688
X3.828 Y4.686
X25.773
X25.794
X25.816
X25.859 Z7.049
X25.946
X26.119 Z7.047
X26.292 Z7.045
X26.466 Z7.041
X26.639 Z7.036
X26.726 Z7.034
X26.812 Z7.031
X26.899 Z7.029
X26.985 Z7.026
X27.072 Z7.023
X27.159 Z7.02
X27.245 Z7.017
X27.332 Z7.014
X27.419 Z7.011
X27.505 Z7.008
X27.592 Z7.005
X27.765 Z6.998
X28.025 Z6.989
X28.112 Z6.986
X28.198 Z6.983
X28.285 Z6.98
X28.371 Z6.977
X28.458 Z6.974
X28.545 Z6.971
X28.631 Z6.969
X28.718 Z6.966
X28.891 Z6.961
X29.064 Z6.957
X29.238 Z6.954
X29.411 Z6.951
X29.584 Z6.95
X29.638
X29.678
X29.692
X30.987
X30.989 Y4.688
Y31.846
X30.987 Y31.848
X3.828
X3.826 Y31.846
Y4.688
X3.828 Y4.686
X29.692
X29.713
X29.735
X29.778 Z6.949
X29.865
X30.038 Z6.947
X30.211 Z6.945
X30.385 Z6.941
X30.558 Z6.936
X30.644 Z6.934
X30.731 Z6.931
X30.818 Z6.929
X30.904 Z6.926
X30.979 Z6.924
X30.985
X30.989 Y4.688
Y4.691
Y4.776 Z6.921
Y4.863 Z6.918
Y4.949 Z6.915
Y5.036 Z6.912
Y5.122 Z6.909
Y5.209 Z6.906
Y5.382 Z6.9
Y5.642 Z6.891
Y5.729 Z6.888
Y5.815 Z6.885
Y5.902 Z6.882
Y5.989 Z6.879
Y6.075 Z6.876
Y6.162 Z6.873
Y6.249 Z6.87
Y6.335 Z6.867
Y6.422 Z6.865
Y6.508 Z6.862
Y6.682 Z6.858
Y6.855 Z6.854
Y7.028 Z6.852
Y7.201 Z6.85
Y7.28
Y7.319
Y7.353
Y7.358
Y31.846
X30.987 Y31.848
X3.828
X3.826 Y31.846
Y4.688
X3.828 Y4.686
X30.987
X30.989 Y4.688
Y7.358
Y7.38
Y7.402
Y7.445 Z6.849
Y7.532
Y7.705 Z6.847
Y7.878 Z6.845
Y8.051 Z6.841
Y8.225 Z6.836
Y8.311 Z6.834
Y8.398 Z6.831
Y8.484 Z6.829
Y8.571 Z6.826
Y8.658 Z6.823
Y8.744 Z6.82
Y8.831 Z6.817
Y8.918 Z6.814
Y9.004 Z6.811
Y9.091 Z6.808
Y9.177 Z6.805
Y9.351 Z6.798
Y9.611 Z6.789
Y9.697 Z6.786
Y9.784 Z6.783
Y9.87 Z6.78
Y9.957 Z6.777
Y10.044 Z6.774
Y10.13 Z6.771
Y10.217 Z6.769
Y10.304 Z6.766
Y10.477 Z6.761
Y10.65 Z6.757
Y10.823 Z6.754
Y10.997 Z6.751
Y11.17 Z6.75
Y11.223
Y11.264
Y11.277
Y31.846
X30.987 Y31.848
X3.828
X3.826 Y31.846
Y4.688
X3.828 Y4.686
X30.987
X30.989 Y4.688
Y11.277
Y11.299
Y11.32
Y11.364 Z6.749
Y11.45
Y11.624 Z6.747
Y11.797 Z6.745
Y11.97 Z6.741
Y12.143 Z6.736
Y12.23 Z6.734
Y12.317 Z6.731
Y12.403 Z6.729
Y12.49 Z6.726
Y12.577 Z6.723
Y12.663 Z6.72
Y12.75 Z6.717
Y12.836 Z6.714
Y12.923 Z6.711
Y13.01 Z6.708
Y13.096 Z6.705
Y13.27 Z6.698
Y13.529 Z6.689
Y13.616 Z6.686
Y13.703 Z6.683
Y13.789 Z6.68
Y13.876 Z6.677
Y13.963 Z6.674
Y14.049 Z6.671
Y14.136 Z6.669
Y14.222 Z6.666
Y14.396 Z6.661
Y14.569 Z6.657
Y14.742 Z6.654
Y14.915 Z6.651
Y15.089 Z6.65
Y15.142
Y15.183
Y15.196
Y31.846
X30.987 Y31.848
X3.828
X3.826 Y31.846
Y4.688
X3.828 Y4.686
X30.987
X30.989 Y4.688
Y11.277
Y15.196
Y15.218
Y15.239
Y15.283 Z6.649
Y15.369
Y15.543 Z6.647
Y15.716 Z6.645
Y15.889 Z6.641
Y16.062 Z6.636
Y16.149 Z6.634
Y16.236 Z6.631
Y16.322 Z6.629
Y16.409 Z6.626
Y16.495 Z6.623
Y16.582 Z6.62
Y16.669 Z6.617
Y16.755 Z6.614
Y16.842 Z6.611
Y16.929 Z6.608
Y17.015 Z6.605
Y17.188 Z6.598
Y17.448 Z6.589
Y17.535 Z6.586
Y17.622 Z6.583
Y17.708 Z6.58
Y17.795 Z6.577
Y17.881 Z6.574
Y17.968 Z6.571
Y18.055 Z6.569
Y18.141 Z6.566
Y18.315 Z6.561
Y18.488 Z6.557
Y18.661 Z6.554
Y18.834 Z6.551
Y19.008 Z6.55
Y19.061
Y19.102
Y19.115
Y31.846
X30.987 Y31.848
X3.828
X3.826 Y31.846
Y4.688
X3.828 Y4.686
X30.987
X30.989 Y4.688
Y15.196
Y19.115
Y19.137
Y19.158
Y19.202 Z6.549
Y19.288
Y19.462 Z6.547
Y19.635 Z6.545
Y19.808 Z6.541
Y19.981 Z6.536
Y20.068 Z6.534
Y20.155 Z6.531
Y20.241 Z6.529
Y20.328 Z6.526
Y20.414 Z6.523
Y20.501 Z6.52
Y20.588 Z6.517
Y20.674 Z6.514
Y20.761 Z6.511
Y20.848 Z6.508
Y20.934 Z6.505
Y21.107 Z6.498
Y21.367 Z6.489
Y21.454 Z6.486
Y21.541 Z6.483
Y21.627 Z6.48
Y21.714 Z6.477
Y21.8 Z6.474
Y21.887 Z6.471
Y21.974 Z6.469
Y22.06 Z6.466
Y22.234 Z6.461
Y22.407 Z6.457
Y22.58 Z6.454
Y22.753 Z6.451
Y22.927 Z6.45
Y22.98
Y23.021
Y23.034
Y31.846
X30.987 Y31.848
X3.828
X3.826 Y31.846
Y4.688
X3.828 Y4.686
X30.987
X30.989 Y4.688
Y19.115
Y23.034
Y23.056
Y23.077
Y23.121 Z6.449
Y23.207
Y23.38 Z6.447
Y23.554 Z6.445
Y23.727 Z6.441
Y23.9 Z6.436
Y23.987 Z6.434
Y24.073 Z6.431
Y24.16 Z6.429
Y24.247 Z6.426
Y24.333 Z6.423
Y24.42 Z6.42
Y24.507 Z6.417
Y24.593 Z6.414
Y24.68 Z6.411
Y24.766 Z6.408
Y24.853 Z6.405
Y25.026 Z6.398
Y25.286 Z6.389
Y25.373 Z6.386
Y25.459 Z6.383
Y25.546 Z6.38
Y25.633 Z6.377
Y25.719 Z6.374
Y25.806 Z6.371
Y25.893 Z6.369
Y25.979 Z6.366
Y26.152 Z6.361
Y26.326 Z6.357
Y26.499 Z6.354
Y26.672 Z6.351
Y26.845 Z6.35
Y26.899
Y26.939
Y26.953
Y31.846
X30.987 Y31.848
X3.828
X3.826 Y31.846
Y4.688
X3.828 Y4.686
X30.987
X30.989 Y4.688
Y23.034
Y26.953
Y26.974
Y26.996
Y27.039 Z6.349
Y27.126
Y27.299 Z6.347
Y27.473 Z6.345
Y27.646 Z6.341
Y27.819 Z6.336
Y27.906 Z6.334
Y27.992 Z6.331
Y28.079 Z6.329
Y28.166 Z6.326
Y28.252 Z6.323
Y28.339 Z6.32
Y28.425 Z6.317
Y28.512 Z6.314
Y28.599 Z6.311
Y28.685 Z6.308
Y28.772 Z6.305
Y28.945 Z6.298
Y29.205 Z6.289
Y29.292 Z6.286
Y29.378 Z6.283
Y29.465 Z6.28
Y29.552 Z6.277
Y29.638 Z6.274
Y29.725 Z6.271
Y29.811 Z6.269
Y29.898 Z6.266
Y30.071 Z6.261
Y30.245 Z6.257
Y30.418 Z6.254
Y30.591 Z6.251
Y30.764 Z6.25
Y30.818
Y30.858
Y30.872
Y31.846
X30.987 Y31.848
X3.828
X3.826 Y31.846
Y4.688
X3.828 Y4.686
X30.987
X30.989 Y4.688
Y26.953
Y30.872
Y30.893
Y30.915
Y30.958 Z6.249
Y31.045
Y31.218 Z6.247
Y31.392 Z6.245
Y31.565 Z6.241
Y31.738 Z6.236
Y31.812 Z6.234
Y31.836
Y31.845
X30.986 Y31.848
X30.981 Z6.233
X30.967
X30.925 Z6.232
X30.838 Z6.229
X30.751 Z6.226
X30.665 Z6.223
X30.578 Z6.22
X30.492 Z6.217
X30.405 Z6.214
X30.318 Z6.211
X30.232 Z6.208
X30.145 Z6.205
X29.972 Z6.199
X29.712 Z6.19
X29.625 Z6.187
X29.539 Z6.184
X29.452 Z6.181
X29.365 Z6.178
X29.279 Z6.175
X29.192 Z6.172
X29.106 Z6.169
X29.019 Z6.166
X28.846 Z6.162
X28.672 Z6.157
X28.499 Z6.154
X28.326 Z6.151
X28.153 Z6.15
X28.089
X28.057
X28.025
X3.828
X3.826 Y31.846
Y4.688
X3.828 Y4.686
X30.987
X30.989 Y4.688
Y30.872
Y31.846
X30.987 Y31.848
X28.025
X28.004
X27.982
X27.939 Z6.149
X27.852
X27.679 Z6.147
X27.505 Z6.145
X27.332 Z6.141
X27.159 Z6.136
X27.072 Z6.134
X26.986 Z6.131
X26.899 Z6.129
X26.812 Z6.126
X26.726 Z6.123
X26.639 Z6.12
X26.553 Z6.117
X26.466 Z6.114
X26.379 Z6.111
X26.293 Z6.108
X26.206 Z6.105
X26.033 Z6.098
X25.773 Z6.089
X25.686 Z6.086
X25.6 Z6.083
X25.513 Z6.08
X25.427 Z6.077
X25.34 Z6.074
X25.253 Z6.071
X25.167 Z6.069
X25.08 Z6.066
X24.907 Z6.061
X24.734 Z6.057
X24.56 Z6.054
X24.387 Z6.051
X24.214 Z6.05
X24.16
X24.12
X24.106
X3.828
X3.826 Y31.846
Y4.688
X3.828 Y4.686
X30.987
X30.989 Y4.688
Y31.846
X30.987 Y31.848
X24.106
X24.085
X24.063
X24.02 Z6.049
X23.933
X23.76 Z6.047
X23.587 Z6.045
X23.413 Z6.041
X23.24 Z6.036
X23.153 Z6.034
X23.067 Z6.031
X22.98 Z6.029
X22.894 Z6.026
X22.807 Z6.023
X22.72 Z6.02
X22.634 Z6.017
X22.547 Z6.014
X22.46 Z6.011
X22.374 Z6.008
X22.287 Z6.005
X22.114 Z5.998
X21.854 Z5.989
X21.767 Z5.986
X21.681 Z5.983
X21.594 Z5.98
X21.508 Z5.977
X21.421 Z5.974
X21.334 Z5.971
X21.248 Z5.969
X21.161 Z5.966
X20.988 Z5.961
X20.815 Z5.957
X20.641 Z5.954
X20.468 Z5.951
X20.295 Z5.95
X20.241
X20.201
X20.187
X3.828
X3.826 Y31.846
Y4.688
X3.828 Y4.686
X30.987
X30.989 Y4.688
Y31.846
X30.987 Y31.848
X24.106
X20.187
X20.166
X20.144
X20.101 Z5.949
X20.014
X19.841 Z5.947
X19.668 Z5.945
X19.494 Z5.941
X19.321 Z5.936
X19.235 Z5.934
X19.148 Z5.931
X19.061 Z5.929
X18.975 Z5.926
X18.888 Z5.923
X18.801 Z5.92
X18.715 Z5.917
X18.628 Z5.914
X18.542 Z5.911
X18.455 Z5.908
X18.368 Z5.905
X18.195 Z5.898
X17.935 Z5.889
X17.849 Z5.886
X17.762 Z5.883
X17.675 Z5.88
X17.589 Z5.877
X17.502 Z5.874
X17.415 Z5.871
X17.329 Z5.869
X17.242 Z5.866
X17.069 Z5.861
X16.896 Z5.857
X16.722 Z5.854
X16.549 Z5.851
X16.376 Z5.85
X16.322
X16.282
X16.268
X3.828
X3.826 Y31.846
Y4.688
X3.828 Y4.686
X30.987
X30.989 Y4.688
Y31.846
X30.987 Y31.848
X20.187
X16.268
X16.247
X16.225
X16.182 Z5.849
X16.095
X15.922 Z5.847
X15.749 Z5.845
X15.576 Z5.841
X15.402 Z5.836
X15.316 Z5.834
X15.229 Z5.831
X15.142 Z5.829
X15.056 Z5.826
X14.969 Z5.823
X14.883 Z5.82
X14.796 Z5.817
X14.709 Z5.814
X14.623 Z5.811
X14.536 Z5.808
X14.449 Z5.805
X14.276 Z5.798
X14.016 Z5.789
X13.93 Z5.786
X13.843 Z5.783
X13.756 Z5.78
X13.67 Z5.777
X13.583 Z5.774
X13.497 Z5.771
X13.41 Z5.769
X13.323 Z5.766
X13.15 Z5.761
X12.977 Z5.757
X12.804 Z5.754
X12.63 Z5.751
X12.457 Z5.75
X12.403
X12.363
X12.35
X3.828
X3.826 Y31.846
Y4.688
X3.828 Y4.686
X30.987
X30.989 Y4.688
Y31.846
X30.987 Y31.848
X16.268
X12.35
X12.328
X12.306
X12.263 Z5.749
X12.176
X12.003 Z5.747
X11.83 Z5.745
X11.657 Z5.741
X11.483 Z5.736
X11.397 Z5.734
X11.31 Z5.731
X11.223 Z5.729
X11.137 Z5.726
X11.05 Z5.723
X10.964 Z5.72
X10.877 Z5.717
X10.79 Z5.714
X10.704 Z5.711
X10.617 Z5.708
X10.53 Z5.705
X10.357 Z5.698
X10.097 Z5.689
X10.011 Z5.686
X9.924 Z5.683
X9.837 Z5.68
X9.751 Z5.677
X9.664 Z5.674
X9.578 Z5.671
X9.491 Z5.669
X9.404 Z5.666
X9.231 Z5.661
X9.058 Z5.657
X8.885 Z5.654
X8.711 Z5.651
X8.538 Z5.65
X8.484
X8.444
X8.431
X3.828
X3.826 Y31.846
Y4.688
X3.828 Y4.686
X30.987
X30.989 Y4.688
Y31.846
X30.987 Y31.848
X12.35
X8.431
X8.409
X8.387
X8.344 Z5.649
X8.257
X8.084 Z5.647
X7.911 Z5.645
X7.738 Z5.641
X7.564 Z5.636
X7.478 Z5.634
X7.391 Z5.631
X7.305 Z5.629
X7.218 Z5.626
X7.131 Z5.623
X7.045 Z5.62
X6.958 Z5.617
X6.871 Z5.614
X6.785 Z5.611
X6.698 Z5.608
X6.612 Z5.605
X6.438 Z5.598
X6.178 Z5.589
X6.092 Z5.586
X6.005 Z5.583
X5.919 Z5.58
X5.832 Z5.577
X5.745 Z5.574
X5.659 Z5.571
X5.572 Z5.569
X5.485 Z5.566
X5.312 Z5.561
X5.139 Z5.557
X4.966 Z5.554
X4.792 Z5.551
X4.619 Z5.55
X4.565
X4.525
X4.512
X3.828
X3.826 Y31.846
Y4.688
X3.828 Y4.686
X30.987
X30.989 Y4.688
Y31.846
X30.987 Y31.848
X8.431
X4.512
X4.49
X4.468
X4.425 Z5.549
X4.339
X4.165 Z5.547
X3.992 Z5.545
X3.909 Z5.543
X3.834 Z5.541
X3.83
X3.826
Y31.84
Y31.667 Z5.536
Y31.58 Z5.534
Y31.494 Z5.531
Y31.407 Z5.529
Y31.32 Z5.526
Y31.234 Z5.523
Y31.147 Z5.52
Y31.06 Z5.517
Y30.974 Z5.514
Y30.887 Z5.511
Y30.801 Z5.508
Y30.714 Z5.505
Y30.541 Z5.498
Y30.281 Z5.489
Y30.194 Z5.486
Y30.108 Z5.483
Y30.021 Z5.48
Y29.934 Z5.477
Y29.848 Z5.474
Y29.761 Z5.471
Y29.674 Z5.469
Y29.588 Z5.466
Y29.415 Z5.461
Y29.241 Z5.457
Y29.068 Z5.454
Y28.895 Z5.451
Y28.722 Z5.45
Y28.668
Y28.628
Y28.614
Y4.688
X3.828 Y4.686
X30.987
X30.989 Y4.688
Y31.846
X30.987 Y31.848
X4.512
X3.828
X3.826 Y31.846
Y28.614
Y28.592
Y28.571
Y28.528 Z5.449
Y28.441
Y28.268 Z5.447
Y28.094 Z5.445
Y27.921 Z5.441
Y27.748 Z5.436
Y27.661 Z5.434
Y27.575 Z5.431
Y27.488 Z5.429
Y27.401 Z5.426
Y27.315 Z5.423
Y27.228 Z5.42
Y27.142 Z5.417
Y27.055 Z5.414
Y26.968 Z5.411
Y26.882 Z5.408
Y26.795 Z5.405
Y26.622 Z5.398
Y26.362 Z5.389
Y26.275 Z5.386
Y26.189 Z5.383
Y26.102 Z5.38
Y26.015 Z5.377
Y25.929 Z5.374
Y25.842 Z5.371
Y25.756 Z5.369
Y25.669 Z5.366
Y25.496 Z5.361
Y25.322 Z5.357
Y25.149 Z5.354
Y24.976 Z5.351
Y24.803 Z5.35
Y24.749
Y24.709
Y24.695
Y4.688
X3.828 Y4.686
X30.987
X30.989 Y4.688
Y31.846
X30.987 Y31.848
X3.828
X3.826 Y31.846
Y24.695
Y24.674
Y24.652
Y24.609 Z5.349
Y24.522
Y24.349 Z5.347
Y24.175 Z5.345
Y24.002 Z5.341
Y23.829 Z5.336
Y23.742 Z5.334
Y23.656 Z5.331
Y23.569 Z5.329
Y23.482 Z5.326
Y23.396 Z5.323
Y23.309 Z5.32
Y23.223 Z5.317
Y23.136 Z5.314
Y23.049 Z5.311
Y22.963 Z5.308
Y22.876 Z5.305
Y22.703 Z5.298
Y22.443 Z5.289
Y22.356 Z5.286
Y22.27 Z5.283
Y22.183 Z5.28
Y22.096 Z5.277
Y22.01 Z5.274
Y21.923 Z5.271
Y21.837 Z5.269
Y21.75 Z5.266
Y21.577 Z5.261
Y21.403 Z5.257
Y21.23 Z5.254
Y21.057 Z5.251
Y20.884 Z5.25
Y20.83
Y20.79
Y20.776
Y4.688
X3.828 Y4.686
X30.987
X30.989 Y4.688
Y31.846
X30.987 Y31.848
X3.828
X3.826 Y31.846
Y24.695
Y20.776
Y20.755
Y20.733
Y20.69 Z5.249
Y20.603
Y20.43 Z5.247
Y20.257 Z5.245
Y20.083 Z5.241
Y19.91 Z5.236
Y19.823 Z5.234
Y19.737 Z5.231
Y19.65 Z5.229
Y19.564 Z5.226
Y19.477 Z5.223
Y19.39 Z5.22
Y19.304 Z5.217
Y19.217 Z5.214
Y19.13 Z5.211
Y19.044 Z5.208
Y18.957 Z5.205
Y18.784 Z5.198
Y18.524 Z5.189
Y18.437 Z5.186
Y18.351 Z5.183
Y18.264 Z5.18
Y18.178 Z5.177
Y18.091 Z5.174
Y18.004 Z5.171
Y17.918 Z5.169
Y17.831 Z5.166
Y17.658 Z5.161
Y17.485 Z5.157
Y17.311 Z5.154
Y17.138 Z5.151
Y16.965 Z5.15
Y16.911
Y16.871
Y16.857
Y4.688
X3.828 Y4.686
X30.987
X30.989 Y4.688
Y31.846
X30.987 Y31.848
X3.828
X3.826 Y31.846
Y20.776
Y16.857
Y16.836
Y16.814
Y16.771 Z5.149
Y16.684
Y16.511 Z5.147
Y16.338 Z5.145
Y16.164 Z5.141
Y15.991 Z5.136
Y15.905 Z5.134
Y15.818 Z5.131
Y15.731 Z5.129
Y15.645 Z5.126
Y15.558 Z5.123
Y15.471 Z5.12
Y15.385 Z5.117
Y15.298 Z5.114
Y15.212 Z5.111
Y15.125 Z5.108
Y15.038 Z5.105
Y14.865 Z5.098
Y14.605 Z5.089
Y14.519 Z5.086
Y14.432 Z5.083
Y14.345 Z5.08
Y14.259 Z5.077
Y14.172 Z5.074
Y14.085 Z5.071
Y13.999 Z5.069
Y13.912 Z5.066
Y13.739 Z5.061
Y13.566 Z5.057
Y13.392 Z5.054
Y13.219 Z5.051
Y13.046 Z5.05
Y12.992
Y12.952
Y12.938
Y4.688
X3.828 Y4.686
X30.987
X30.989 Y4.688
Y31.846
X30.987 Y31.848
X3.828
X3.826 Y31.846
Y16.857
Y12.938
Y12.917
Y12.895
Y12.852 Z5.049
Y12.765
Y12.592 Z5.047
Y12.419 Z5.045
Y12.245 Z5.041
Y12.072 Z5.036
Y11.986 Z5.034
Y11.899 Z5.031
Y11.812 Z5.029
Y11.726 Z5.026
Y11.639 Z5.023
Y11.552 Z5.02
Y11.466 Z5.017
Y11.379 Z5.014
Y11.293 Z5.011
Y11.206 Z5.008
Y11.119 Z5.005
Y10.946 Z4.998
Y10.686 Z4.989
Y10.6 Z4.986
Y10.513 Z4.983
Y10.426 Z4.98
Y10.34 Z4.977
Y10.253 Z4.974
Y10.166 Z4.971
Y10.08 Z4.969
Y9.993 Z4.966
Y9.82 Z4.961
Y9.647 Z4.957
Y9.473 Z4.954
Y9.3 Z4.951
Y9.127 Z4.95
Y9.073
Y9.033
Y9.02
Y4.688
X3.828 Y4.686
X30.987
X30.989 Y4.688
Y31.846
X30.987 Y31.848
X3.828
X3.826 Y31.846
Y12.938
Y9.02
Y8.998
Y8.976
Y8.933 Z4.949
Y8.846
Y8.673 Z4.947
Y8.5 Z4.945
Y8.327 Z4.941
Y8.153 Z4.936
Y8.067 Z4.934
Y7.98 Z4.931
Y7.893 Z4.929
Y7.807 Z4.926
Y7.72 Z4.923
Y7.634 Z4.92
Y7.547 Z4.917
Y7.46 Z4.914
Y7.374 Z4.911
Y7.287 Z4.908
Y7.2 Z4.905
Y7.027 Z4.898
Y6.767 Z4.889
Y6.681 Z4.886
Y6.594 Z4.883
Y6.507 Z4.88
Y6.421 Z4.877
Y6.334 Z4.874
Y6.248 Z4.871
Y6.161 Z4.869
Y6.074 Z4.866
Y5.901 Z4.861
Y5.728 Z4.857
Y5.555 Z4.854
Y5.381 Z4.851
Y5.208 Z4.85
Y5.154
Y5.114
Y5.101
Y4.688
X3.828 Y4.686
X30.987
X30.989 Y4.688
Y31.846
X30.987 Y31.848
X3.828
X3.826 Y31.846
Y9.02
Y5.101
Y5.079
Y5.057
Y5.014 Z4.849
Y4.927
Y4.754 Z4.847
Y4.713
Y4.688 Z4.846
X3.83 Y4.686
X3.857
X3.932 Z4.845
X4.105 Z4.841
X4.279 Z4.836
X4.365 Z4.834
X4.452 Z4.831
X4.538 Z4.829
X4.625 Z4.826
X4.712 Z4.823
X4.798 Z4.82
X4.885 Z4.817
X4.972 Z4.814
X5.058 Z4.811
X5.145 Z4.808
X5.231 Z4.805
X5.405 Z4.798
X5.665 Z4.789
X5.751 Z4.786
X5.838 Z4.783
X5.924 Z4.78
X6.011 Z4.777
X6.098 Z4.774
X6.184 Z4.771
X6.271 Z4.769
X6.358 Z4.766
X6.531 Z4.761
X6.704 Z4.757
X6.877 Z4.754
X7.051 Z4.751
X7.224 Z4.75
X7.277
X7.318
X7.331
X30.987
X30.989 Y4.688
Y31.846
X30.987 Y31.848
X3.828
X3.826 Y31.846
Y5.101
Y4.688
X3.828 Y4.686
X7.331
X7.353
X7.375
X7.418 Z4.749
X7.504
X7.678 Z4.747
X7.851 Z4.745
X8.024 Z4.741
X8.197 Z4.736
X8.284 Z4.734
X8.371 Z4.731
X8.457 Z4.729
X8.544 Z4.726
X8.631 Z4.723
X8.717 Z4.72
X8.804 Z4.717
X8.89 Z4.714
X8.977 Z4.711
X9.064 Z4.708
X9.15 Z4.705
X9.324 Z4.698
X9.583 Z4.689
X9.67 Z4.686
X9.757 Z4.683
X9.843 Z4.68
X9.93 Z4.677
X10.017 Z4.674
X10.103 Z4.671
X10.19 Z4.669
X10.276 Z4.666
X10.45 Z4.661
X10.623 Z4.657
X10.796 Z4.654
X10.969 Z4.651
X11.143 Z4.65
X11.196
X11.237
X11.25
X30.987
X30.989 Y4.688
Y31.846
X30.987 Y31.848
X3.828
X3.826 Y31.846
Y4.688
X3.828 Y4.686
X11.25
X11.272
X11.293
X11.337 Z4.649
X11.423
X11.597 Z4.647
X11.77 Z4.645
X11.943 Z4.641
X12.116 Z4.636
X12.203 Z4.634
X12.29 Z4.631
X12.376 Z4.629
X12.463 Z4.626
X12.549 Z4.623
X12.636 Z4.62
X12.723 Z4.617
X12.809 Z4.614
X12.896 Z4.611
X12.983 Z4.608
X13.069 Z4.605
X13.242 Z4.598
X13.502 Z4.589
X13.589 Z4.586
X13.676 Z4.583
X13.762 Z4.58
X13.849 Z4.577
X13.935 Z4.574
X14.022 Z4.571
X14.109 Z4.569
X14.195 Z4.566
X14.369 Z4.561
X14.542 Z4.557
X14.715 Z4.554
X14.888 Z4.551
X15.062 Z4.55
X15.115
X15.156
X15.169
X30.987
X30.989 Y4.688
Y31.846
X30.987 Y31.848
X3.828
X3.826 Y31.846
Y4.688
X3.828 Y4.686
X15.169
X15.191
X15.212
X15.256 Z4.549
X15.342
X15.516 Z4.547
X15.689 Z4.545
X15.862 Z4.541
X16.035 Z4.536
X16.122 Z4.534
X16.209 Z4.531
X16.295 Z4.529
X16.382 Z4.526
X16.468 Z4.523
X16.555 Z4.52
X16.642 Z4.517
X16.728 Z4.514
X16.815 Z4.511
X16.902 Z4.508
X16.988 Z4.505
X17.161 Z4.498
X17.421 Z4.489
X17.508 Z4.486
X17.595 Z4.483
X17.681 Z4.48
X17.768 Z4.477
X17.854 Z4.474
X17.941 Z4.471
X18.028 Z4.469
X18.114 Z4.466
X18.288 Z4.461
X18.461 Z4.457
X18.634 Z4.454
X18.807 Z4.451
X18.981 Z4.45
X19.034
X19.075
X19.088
X30.987
X30.989 Y4.688
Y31.846
X30.987 Y31.848
X3.828
X3.826 Y31.846
Y4.688
X3.828 Y4.686
X19.088
X19.11
X19.131
X19.175 Z4.449
X19.261
X19.434 Z4.447
X19.608 Z4.445
X19.781 Z4.441
X19.954 Z4.436
X20.041 Z4.434
X20.127 Z4.431
X20.214 Z4.429
X20.301 Z4.426
X20.387 Z4.423
X20.474 Z4.42
X20.561 Z4.417
X20.647 Z4.414
X20.734 Z4.411
X20.82 Z4.408
X20.907 Z4.405
X21.08 Z4.398
X21.34 Z4.389
X21.427 Z4.386
X21.513 Z4.383
X21.6 Z4.38
X21.687 Z4.377
X21.773 Z4.374
X21.86 Z4.371
X21.947 Z4.369
X22.033 Z4.366
X22.206 Z4.361
X22.38 Z4.357
X22.553 Z4.354
X22.726 Z4.351
X22.899 Z4.35
X22.953
X22.993
X23.007
X30.987
X30.989 Y4.688
Y31.846
X30.987 Y31.848
X3.828
X3.826 Y31.846
Y4.688
X3.828 Y4.686
X23.007
X23.029
X23.05
X23.093 Z4.349
X23.18
X23.353 Z4.347
X23.527 Z4.345
X23.7 Z4.341
X23.873 Z4.336
X23.96 Z4.334
X24.046 Z4.331
X24.133 Z4.329
X24.22 Z4.326
X24.306 Z4.323
X24.393 Z4.32
X24.479 Z4.317
X24.566 Z4.314
X24.653 Z4.311
X24.739 Z4.308
X24.826 Z4.305
X24.999 Z4.298
X25.259 Z4.289
X25.346 Z4.286
X25.432 Z4.283
X25.519 Z4.28
X25.606 Z4.277
X25.692 Z4.274
X25.779 Z4.271
X25.865 Z4.269
X25.952 Z4.266
X26.125 Z4.261
X26.299 Z4.257
X26.472 Z4.254
X26.645 Z4.251
X26.818 Z4.25
X26.872
X26.912
X26.926
X30.987
X30.989 Y4.688
Y31.846
X30.987 Y31.848
X3.828
X3.826 Y31.846
Y4.688
X3.828 Y4.686
X26.926
X26.947
X26.969
X27.012 Z4.249
X27.099
X27.272 Z4.247
X27.446 Z4.245
X27.619 Z4.241
X27.792 Z4.236
X27.879 Z4.234
X27.965 Z4.231
X28.052 Z4.229
X28.139 Z4.226
X28.225 Z4.223
X28.312 Z4.22
X28.398 Z4.217
X28.485 Z4.214
X28.572 Z4.211
X28.658 Z4.208
X28.745 Z4.205
X28.918 Z4.198
X29.178 Z4.189
X29.265 Z4.186
X29.351 Z4.183
X29.438 Z4.18
X29.525 Z4.177
X29.611 Z4.174
X29.698 Z4.171
X29.784 Z4.169
X29.871 Z4.166
X30.044 Z4.161
X30.218 Z4.157
X30.391 Z4.154
X30.564 Z4.151
X30.737 Z4.15
X30.791
X30.831
X30.845
X30.987
X30.989 Y4.688
Y31.846
X30.987 Y31.848
X3.828
X3.826 Y31.846
Y4.688
X3.828 Y4.686
X30.845
X30.863
X30.882
X30.92 Z4.149
X30.986
X30.989 Y4.688
Y4.716
Y4.89 Z4.147
Y5.063 Z4.145
Y5.236 Z4.141
Y5.409 Z4.136
Y5.496 Z4.134
Y5.582 Z4.131
Y5.669 Z4.129
Y5.756 Z4.126
Y5.842 Z4.123
Y5.929 Z4.12
Y6.016 Z4.117
Y6.102 Z4.114
Y6.189 Z4.111
Y6.275 Z4.108
Y6.362 Z4.105
Y6.535 Z4.098
Y6.795 Z4.089
Y6.882 Z4.086
Y6.968 Z4.083
Y7.055 Z4.08
Y7.142 Z4.077
Y7.228 Z4.074
Y7.315 Z4.071
Y7.402 Z4.069
Y7.488 Z4.066
Y7.661 Z4.061
Y7.835 Z4.057
Y8.008 Z4.054
Y8.181 Z4.051
Y8.354 Z4.05
Y8.408
Y8.448
Y8.462
Y31.846
X30.987 Y31.848
X3.828
X3.826 Y31.846
Y4.688
X3.828 Y4.686
X30.987
X30.989 Y4.688
Y8.462
Y8.484
Y8.505
Y8.549 Z4.049
Y8.635
Y8.808 Z4.047
Y8.982 Z4.045
Y9.155 Z4.041
Y9.328 Z4.036
Y9.415 Z4.034
Y9.501 Z4.031
Y9.588 Z4.029
Y9.675 Z4.026
Y9.761 Z4.023
Y9.848 Z4.02
Y9.935 Z4.017
Y10.021 Z4.014
Y10.108 Z4.011
Y10.194 Z4.008
Y10.281 Z4.005
Y10.454 Z3.998
Y10.714 Z3.989
Y10.801 Z3.986
Y10.887 Z3.983
Y10.974 Z3.98
Y11.061 Z3.977
Y11.147 Z3.974
Y11.234 Z3.971
Y11.321 Z3.969
Y11.407 Z3.966
Y11.58 Z3.961
Y11.754 Z3.957
Y11.927 Z3.954
Y12.1 Z3.951
Y12.273 Z3.95
Y12.327
Y12.367
Y12.381
Y31.846
X30.987 Y31.848
X3.828
X3.826 Y31.846
Y4.688
X3.828 Y4.686
X30.987
X30.989 Y4.688
Y12.381
Y12.402
Y12.424
Y12.467 Z3.949
Y12.554
Y12.727 Z3.947
Y12.901 Z3.945
Y13.074 Z3.941
Y13.247 Z3.936
Y13.334 Z3.934
Y13.42 Z3.931
Y13.507 Z3.929
Y13.594 Z3.926
Y13.68 Z3.923
Y13.767 Z3.92
Y13.853 Z3.917
Y13.94 Z3.914
Y14.027 Z3.911
Y14.113 Z3.908
Y14.2 Z3.905
Y14.373 Z3.898
Y14.633 Z3.889
Y14.72 Z3.886
Y14.806 Z3.883
Y14.893 Z3.88
Y14.98 Z3.877
Y15.066 Z3.874
Y15.153 Z3.871
Y15.239 Z3.869
Y15.326 Z3.866
Y15.499 Z3.861
Y15.673 Z3.857
Y15.846 Z3.854
Y16.019 Z3.851
Y16.192 Z3.85
Y16.246
Y16.286
Y16.3
Y31.846
X30.987 Y31.848
X3.828
X3.826 Y31.846
Y4.688
X3.828 Y4.686
X30.987
X30.989 Y4.688
Y12.381
Y16.3
Y16.321
Y16.343
Y16.386 Z3.849
Y16.473
Y16.646 Z3.847
Y16.819 Z3.845
Y16.993 Z3.841
Y17.166 Z3.836
Y17.253 Z3.834
Y17.339 Z3.831
Y17.426 Z3.829
Y17.512 Z3.826
Y17.599 Z3.823
Y17.686 Z3.82
Y17.772 Z3.817
Y17.859 Z3.814
Y17.946 Z3.811
Y18.032 Z3.808
Y18.119 Z3.805
Y18.292 Z3.798
Y18.552 Z3.789
Y18.639 Z3.786
Y18.725 Z3.783
Y18.812 Z3.78
Y18.898 Z3.777
Y18.985 Z3.774
Y19.072 Z3.771
Y19.158 Z3.769
Y19.245 Z3.766
Y19.418 Z3.761
Y19.591 Z3.757
Y19.765 Z3.754
Y19.938 Z3.751
Y20.111 Z3.75
Y20.165
Y20.205
Y20.219
Y31.846
X30.987 Y31.848
X3.828
X3.826 Y31.846
Y4.688
X3.828 Y4.686
X30.987
X30.989 Y4.688
Y16.3
Y20.219
Y20.24
Y20.262
Y20.305 Z3.749
Y20.392
Y20.565 Z3.747
Y20.738 Z3.745
Y20.912 Z3.741
Y21.085 Z3.736
Y21.172 Z3.734
Y21.258 Z3.731
Y21.345 Z3.729
Y21.431 Z3.726
Y21.518 Z3.723
Y21.605 Z3.72
Y21.691 Z3.717
Y21.778 Z3.714
Y21.865 Z3.711
Y21.951 Z3.708
Y22.038 Z3.705
Y22.211 Z3.698
Y22.471 Z3.689
Y22.558 Z3.686
Y22.644 Z3.683
Y22.731 Z3.68
Y22.817 Z3.677
Y22.904 Z3.674
Y22.991 Z3.671
Y23.077 Z3.669
Y23.164 Z3.666
Y23.337 Z3.661
Y23.51 Z3.657
Y23.684 Z3.654
Y23.857 Z3.651
Y24.03 Z3.65
Y24.084
Y24.124
Y24.138
Y31.846
X30.987 Y31.848
X3.828
X3.826 Y31.846
Y4.688
X3.828 Y4.686
X30.987
X30.989 Y4.688
Y20.219
Y24.138
Y24.159
Y24.181
Y24.224 Z3.649
Y24.311
Y24.484 Z3.647
Y24.657 Z3.645
Y24.831 Z3.641
Y25.004 Z3.636
Y25.09 Z3.634
Y25.177 Z3.631
Y25.264 Z3.629
Y25.35 Z3.626
Y25.437 Z3.623
Y25.524 Z3.62
Y25.61 Z3.617
Y25.697 Z3.614
Y25.783 Z3.611
Y25.87 Z3.608
Y25.957 Z3.605
Y26.13 Z3.598
Y26.39 Z3.589
Y26.476 Z3.586
Y26.563 Z3.583
Y26.65 Z3.58
Y26.736 Z3.577
Y26.823 Z3.574
Y26.91 Z3.571
Y26.996 Z3.569
Y27.083 Z3.566
Y27.256 Z3.561
Y27.429 Z3.557
Y27.603 Z3.554
Y27.776 Z3.551
Y27.949 Z3.55
Y28.003
Y28.043
Y28.056
Y31.846
X30.987 Y31.848
X3.828
X3.826 Y31.846
Y4.688
X3.828 Y4.686
X30.987
X30.989 Y4.688
Y24.138
Y28.056
Y28.078
Y28.1
Y28.143 Z3.549
Y28.23
Y28.403 Z3.547
Y28.576 Z3.545
Y28.749 Z3.541
Y28.923 Z3.536
Y29.009 Z3.534
Y29.096 Z3.531
Y29.183 Z3.529
Y29.269 Z3.526
Y29.356 Z3.523
Y29.442 Z3.52
Y29.529 Z3.517
Y29.616 Z3.514
Y29.702 Z3.511
Y29.789 Z3.508
Y29.876 Z3.505
Y30.049 Z3.498
Y30.309 Z3.489
Y30.395 Z3.486
Y30.482 Z3.483
Y30.569 Z3.48
Y30.655 Z3.477
Y30.742 Z3.474
Y30.828 Z3.471
Y30.915 Z3.469
Y31.002 Z3.466
Y31.175 Z3.461
Y31.348 Z3.457
Y31.521 Z3.454
Y31.695 Z3.451
Y31.773 Z3.45
Y31.814
Y31.845
X30.986 Y31.848
X30.968
X30.914
X30.874
X30.861
X3.828
X3.826 Y31.846
Y4.688
X3.828 Y4.686
X30.987
X30.989 Y4.688
Y28.056
Y31.846
X30.987 Y31.848
X30.861
X30.839
X30.817
X30.774 Z3.449
X30.687
X30.514 Z3.447
X30.341 Z3.445
X30.168 Z3.441
X29.994 Z3.436
X29.908 Z3.434
X29.821 Z3.431
X29.734 Z3.429
X29.648 Z3.426
X29.561 Z3.423
X29.475 Z3.42
X29.388 Z3.417
X29.301 Z3.414
X29.215 Z3.411
X29.128 Z3.408
X29.041 Z3.405
X28.868 Z3.398
X28.608 Z3.389
X28.522 Z3.386
X28.435 Z3.383
X28.348 Z3.38
X28.262 Z3.377
X28.175 Z3.374
X28.089 Z3.371
X28.002 Z3.369
X27.915 Z3.366
X27.742 Z3.361
X27.569 Z3.357
X27.396 Z3.354
X27.222 Z3.351
X27.049 Z3.35
X26.995
X26.955
X26.942
X3.828
X3.826 Y31.846
Y4.688
X3.828 Y4.686
X30.987
X30.989 Y4.688
Y31.846
X30.987 Y31.848
X26.942
X26.92
X26.898
X26.855 Z3.349
X26.768
X26.595 Z3.347
X26.422 Z3.345
X26.249 Z3.341
X26.075 Z3.336
X25.989 Z3.334
X25.902 Z3.331
X25.815 Z3.329
X25.729 Z3.326
X25.642 Z3.323
X25.556 Z3.32
X25.469 Z3.317
X25.382 Z3.314
X25.296 Z3.311
X25.209 Z3.308
X25.122 Z3.305
X24.949 Z3.298
X24.689 Z3.289
X24.603 Z3.286
X24.516 Z3.283
X24.429 Z3.28
X24.343 Z3.277
X24.256 Z3.274
X24.17 Z3.271
X24.083 Z3.269
X23.996 Z3.266
X23.823 Z3.261
X23.65 Z3.257
X23.477 Z3.254
X23.303 Z3.251
X23.13 Z3.25
X23.076
X23.036
X23.023
X3.828
X3.826 Y31.846
Y4.688
X3.828 Y4.686
X30.987
X30.989 Y4.688
Y31.846
X30.987 Y31.848
X26.942
X23.023
X23.001
X22.979
X22.936 Z3.249
X22.849
X22.676 Z3.247
X22.503 Z3.245
X22.33 Z3.241
X22.156 Z3.236
X22.07 Z3.234
X21.983 Z3.231
X21.897 Z3.229
X21.81 Z3.226
X21.723 Z3.223
X21.637 Z3.22
X21.55 Z3.217
X21.463 Z3.214
X21.377 Z3.211
X21.29 Z3.208
X21.204 Z3.205
X21.03 Z3.198
X20.77 Z3.189
X20.684 Z3.186
X20.597 Z3.183
X20.511 Z3.18
X20.424 Z3.177
X20.337 Z3.174
X20.251 Z3.171
X20.164 Z3.169
X20.077 Z3.166
X19.904 Z3.161
X19.731 Z3.157
X19.558 Z3.154
X19.384 Z3.151
X19.211 Z3.15
X19.157
X19.117
X19.104
X3.828
X3.826 Y31.846
Y4.688
X3.828 Y4.686
X30.987
X30.989 Y4.688
Y31.846
X30.987 Y31.848
X23.023
X19.104
X19.082
X19.06
X19.017 Z3.149
X18.931
X18.757 Z3.147
X18.584 Z3.145
X18.411 Z3.141
X18.238 Z3.136
X18.151 Z3.134
X18.064 Z3.131
X17.978 Z3.129
X17.891 Z3.126
X17.804 Z3.123
X17.718 Z3.12
X17.631 Z3.117
X17.545 Z3.114
X17.458 Z3.111
X17.371 Z3.108
X17.285 Z3.105
X17.111 Z3.098
X16.852 Z3.089
X16.765 Z3.086
X16.678 Z3.083
X16.592 Z3.08
X16.505 Z3.077
X16.418 Z3.074
X16.332 Z3.071
X16.245 Z3.069
X16.159 Z3.066
X15.985 Z3.061
X15.812 Z3.057
X15.639 Z3.054
X15.466 Z3.051
X15.292 Z3.05
X15.239
X15.198
X15.185
X3.828
X3.826 Y31.846
Y4.688
X3.828 Y4.686
X30.987
X30.989 Y4.688
Y31.846
X30.987 Y31.848
X19.104
X15.185
X15.163
X15.142
X15.098 Z3.049
X15.012
X14.838 Z3.047
X14.665 Z3.045
X14.492 Z3.041
X14.319 Z3.036
X14.232 Z3.034
X14.145 Z3.031
X14.059 Z3.029
X13.972 Z3.026
X13.886 Z3.023
X13.799 Z3.02
X13.712 Z3.017
X13.626 Z3.014
X13.539 Z3.011
X13.452 Z3.008
X13.366 Z3.005
X13.193 Z2.998
X12.933 Z2.989
X12.846 Z2.986
X12.759 Z2.983
X12.673 Z2.98
X12.586 Z2.977
X12.5 Z2.974
X12.413 Z2.971
X12.326 Z2.969
X12.24 Z2.966
X12.066 Z2.961
X11.893 Z2.957
X11.72 Z2.954
X11.547 Z2.951
X11.373 Z2.95
X11.32
X11.279
X11.266
X3.828
X3.826 Y31.846
Y4.688
X3.828 Y4.686
X30.987
X30.989 Y4.688
Y31.846
X30.987 Y31.848
X15.185
X11.266
X11.244
X11.223
X11.179 Z2.949
X11.093
X10.919 Z2.947
X10.746 Z2.945
X10.573 Z2.941
X10.4 Z2.936
X10.313 Z2.934
X10.226 Z2.931
X10.14 Z2.929
X10.053 Z2.926
X9.967 Z2.923
X9.88 Z2.92
X9.793 Z2.917
X9.707 Z2.914
X9.62 Z2.911
X9.533 Z2.908
X9.447 Z2.905
X9.274 Z2.898
X9.014 Z2.889
X8.927 Z2.886
X8.84 Z2.883
X8.754 Z2.88
X8.667 Z2.877
X8.581 Z2.874
X8.494 Z2.871
X8.407 Z2.869
X8.321 Z2.866
X8.147 Z2.861
X7.974 Z2.857
X7.801 Z2.854
X7.628 Z2.851
X7.454 Z2.85
X7.401
X7.36
X7.347
X3.828
X3.826 Y31.846
Y4.688
X3.828 Y4.686
X30.987
X30.989 Y4.688
Y31.846
X30.987 Y31.848
X11.266
X7.347
X7.325
X7.304
X7.26 Z2.849
X7.174
X7.001 Z2.847
X6.827 Z2.845
X6.654 Z2.841
X6.481 Z2.836
X6.394 Z2.834
X6.308 Z2.831
X6.221 Z2.829
X6.134 Z2.826
X6.048 Z2.823
X5.961 Z2.82
X5.874 Z2.817
X5.788 Z2.814
X5.701 Z2.811
X5.615 Z2.808
X5.528 Z2.805
X5.355 Z2.798
X5.095 Z2.789
X5.008 Z2.786
X4.922 Z2.783
X4.835 Z2.78
X4.748 Z2.777
X4.662 Z2.774
X4.575 Z2.771
X4.488 Z2.769
X4.402 Z2.766
X4.229 Z2.761
X4.055 Z2.757
X3.882 Z2.754
X3.835 Z2.753
X3.826
Y31.844
Y31.839
Y31.803 Z2.752
Y31.73 Z2.751
Y31.557 Z2.75
Y31.503
Y31.463
Y31.449
Y4.688
X3.828 Y4.686
X30.987
X30.989 Y4.688
Y31.846
X30.987 Y31.848
X7.347
X3.828
X3.826 Y31.846
Y31.449
Y31.428
Y31.406
Y31.363 Z2.749
Y31.276
Y31.103 Z2.747
Y30.93 Z2.745
Y30.756 Z2.741
Y30.583 Z2.736
Y30.497 Z2.734
Y30.41 Z2.731
Y30.323 Z2.729
Y30.237 Z2.726
Y30.15 Z2.723
Y30.063 Z2.72
Y29.977 Z2.717
Y29.89 Z2.714
Y29.804 Z2.711
Y29.717 Z2.708
Y29.63 Z2.705
Y29.457 Z2.698
Y29.197 Z2.689
Y29.111 Z2.686
Y29.024 Z2.683
Y28.937 Z2.68
Y28.851 Z2.677
Y28.764 Z2.674
Y28.677 Z2.671
Y28.591 Z2.669
Y28.504 Z2.666
Y28.331 Z2.661
Y28.158 Z2.657
Y27.984 Z2.654
Y27.811 Z2.651
Y27.638 Z2.65
Y27.584
Y27.544
Y27.531
Y4.688
X3.828 Y4.686
X30.987
X30.989 Y4.688
Y31.846
X30.987 Y31.848
X3.828
X3.826 Y31.846
Y27.531
Y27.509
Y27.487
Y27.444 Z2.649
Y27.357
Y27.184 Z2.647
Y27.011 Z2.645
Y26.838 Z2.641
Y26.664 Z2.636
Y26.578 Z2.634
Y26.491 Z2.631
Y26.404 Z2.629
Y26.318 Z2.626
Y26.231 Z2.623
Y26.145 Z2.62
Y26.058 Z2.617
Y25.971 Z2.614
Y25.885 Z2.611
Y25.798 Z2.608
Y25.711 Z2.605
Y25.538 Z2.598
Y25.278 Z2.589
Y25.192 Z2.586
Y25.105 Z2.583
Y25.018 Z2.58
Y24.932 Z2.577
Y24.845 Z2.574
Y24.759 Z2.571
Y24.672 Z2.569
Y24.585 Z2.566
Y24.412 Z2.561
Y24.239 Z2.557
Y24.066 Z2.554
Y23.892 Z2.551
Y23.719 Z2.55
Y23.665
Y23.625
Y23.612
Y4.688
X3.828 Y4.686
X30.987
X30.989 Y4.688
Y31.846
X30.987 Y31.848
X3.828
X3.826 Y31.846
Y27.531
Y23.612
Y23.59
Y23.568
Y23.525 Z2.549
Y23.438
Y23.265 Z2.547
Y23.092 Z2.545
Y22.919 Z2.541
Y22.745 Z2.536
Y22.659 Z2.534
Y22.572 Z2.531
Y22.485 Z2.529
Y22.399 Z2.526
Y22.312 Z2.523
Y22.226 Z2.52
Y22.139 Z2.517
Y22.052 Z2.514
Y21.966 Z2.511
Y21.879 Z2.508
Y21.792 Z2.505
Y21.619 Z2.498
Y21.359 Z2.489
Y21.273 Z2.486
Y21.186 Z2.483
Y21.099 Z2.48
Y21.013 Z2.477
Y20.926 Z2.474
Y20.84 Z2.471
Y20.753 Z2.469
Y20.666 Z2.466
Y20.493 Z2.461
Y20.32 Z2.457
Y20.147 Z2.454
Y19.973 Z2.451
Y19.8 Z2.45
Y19.746
Y19.706
Y19.693
Y4.688
X3.828 Y4.686
X30.987
X30.989 Y4.688
Y31.846
X30.987 Y31.848
X3.828
X3.826 Y31.846
Y23.612
Y19.693
Y19.671
Y19.649
Y19.606 Z2.449
Y19.519
Y19.346 Z2.447
Y19.173 Z2.445
Y19. Z2.441
Y18.826 Z2.436
Y18.74 Z2.434
Y18.653 Z2.431
Y18.567 Z2.429
Y18.48 Z2.426
Y18.393 Z2.423
Y18.307 Z2.42
Y18.22 Z2.417
Y18.133 Z2.414
Y18.047 Z2.411
Y17.96 Z2.408
Y17.874 Z2.405
Y17.7 Z2.398
Y17.44 Z2.389
Y17.354 Z2.386
Y17.267 Z2.383
Y17.181 Z2.38
Y17.094 Z2.377
Y17.007 Z2.374
Y16.921 Z2.371
Y16.834 Z2.369
Y16.747 Z2.366
Y16.574 Z2.361
Y16.401 Z2.357
Y16.228 Z2.354
Y16.054 Z2.351
Y15.881 Z2.35
Y15.827
Y15.787
Y15.774
Y4.688
X3.828 Y4.686
X30.987
X30.989 Y4.688
Y31.846
X30.987 Y31.848
X3.828
X3.826 Y31.846
Y19.693
Y15.774
Y15.752
Y15.73
Y15.687 Z2.349
Y15.601
Y15.427 Z2.347
Y15.254 Z2.345
Y15.081 Z2.341
Y14.908 Z2.336
Y14.821 Z2.334
Y14.734 Z2.331
Y14.648 Z2.329
Y14.561 Z2.326
Y14.474 Z2.323
Y14.388 Z2.32
Y14.301 Z2.317
Y14.215 Z2.314
Y14.128 Z2.311
Y14.041 Z2.308
Y13.955 Z2.305
Y13.781 Z2.298
Y13.522 Z2.289
Y13.435 Z2.286
Y13.348 Z2.283
Y13.262 Z2.28
Y13.175 Z2.277
Y13.088 Z2.274
Y13.002 Z2.271
Y12.915 Z2.269
Y12.829 Z2.266
Y12.655 Z2.261
Y12.482 Z2.257
Y12.309 Z2.254
Y12.136 Z2.251
Y11.962 Z2.25
Y11.909
Y11.868
Y11.855
Y4.688
X3.828 Y4.686
X30.987
X30.989 Y4.688
Y31.846
X30.987 Y31.848
X3.828
X3.826 Y31.846
Y15.774
Y11.855
Y11.833
Y11.812
Y11.768 Z2.249
Y11.682
Y11.508 Z2.247
Y11.335 Z2.245
Y11.162 Z2.241
Y10.989 Z2.236
Y10.902 Z2.234
Y10.815 Z2.231
Y10.729 Z2.229
Y10.642 Z2.226
Y10.555 Z2.223
Y10.469 Z2.22
Y10.382 Z2.217
Y10.296 Z2.214
Y10.209 Z2.211
Y10.122 Z2.208
Y10.036 Z2.205
Y9.862 Z2.198
Y9.603 Z2.189
Y9.516 Z2.186
Y9.429 Z2.183
Y9.343 Z2.18
Y9.256 Z2.177
Y9.169 Z2.174
Y9.083 Z2.171
Y8.996 Z2.169
Y8.91 Z2.166
Y8.736 Z2.161
Y8.563 Z2.157
Y8.39 Z2.154
Y8.217 Z2.151
Y8.043 Z2.15
Y7.99
Y7.949
Y7.936
Y4.688
X3.828 Y4.686
X30.987
X30.989 Y4.688
Y31.846
X30.987 Y31.848
X3.828
X3.826 Y31.846
Y11.855
Y7.936
Y7.914
Y7.893
Y7.849 Z2.149
Y7.763
Y7.589 Z2.147
Y7.416 Z2.145
Y7.243 Z2.141
Y7.07 Z2.136
Y6.983 Z2.134
Y6.896 Z2.131
Y6.81 Z2.129
Y6.723 Z2.126
Y6.637 Z2.123
Y6.55 Z2.12
Y6.463 Z2.117
Y6.377 Z2.114
Y6.29 Z2.111
Y6.203 Z2.108
Y6.117 Z2.105
Y5.944 Z2.098
Y5.684 Z2.089
Y5.597 Z2.086
Y5.51 Z2.083
Y5.424 Z2.08
Y5.337 Z2.077
Y5.251 Z2.074
Y5.164 Z2.071
Y5.077 Z2.069
Y4.991 Z2.066
Y4.817 Z2.061
Y4.745 Z2.059
Y4.7 Z2.058
Y4.687
X3.83 Y4.686
X3.845 Z2.057
X3.869
X4.042 Z2.054
X4.215 Z2.051
X4.388 Z2.05
X4.442
X4.482
X4.496
X30.987
X30.989 Y4.688
Y31.846
X30.987 Y31.848
X3.828
X3.826 Y31.846
Y7.936
Y4.688
X3.828 Y4.686
X4.496
X4.518
X4.539
X4.583 Z2.049
X4.669
X4.842 Z2.047
X5.016 Z2.045
X5.189 Z2.041
X5.362 Z2.036
X5.449 Z2.034
X5.535 Z2.031
X5.622 Z2.029
X5.709 Z2.026
X5.795 Z2.023
X5.882 Z2.02
X5.969 Z2.017
X6.055 Z2.014
X6.142 Z2.011
X6.228 Z2.008
X6.315 Z2.005
X6.488 Z1.998
X6.748 Z1.989
X6.835 Z1.986
X6.921 Z1.983
X7.008 Z1.98
X7.095 Z1.977
X7.181 Z1.974
X7.268 Z1.971
X7.355 Z1.969
X7.441 Z1.966
X7.614 Z1.961
X7.788 Z1.957
X7.961 Z1.954
X8.134 Z1.951
X8.307 Z1.95
X8.361
X8.401
X8.415
X30.987
X30.989 Y4.688
Y31.846
X30.987 Y31.848
X3.828
X3.826 Y31.846
Y4.688
X3.828 Y4.686
X8.415
X8.436
X8.458
X8.501 Z1.949
X8.588
X8.761 Z1.947
X8.935 Z1.945
X9.108 Z1.941
X9.281 Z1.936
X9.368 Z1.934
X9.454 Z1.931
X9.541 Z1.929
X9.628 Z1.926
X9.714 Z1.923
X9.801 Z1.92
X9.887 Z1.917
X9.974 Z1.914
X10.061 Z1.911
X10.147 Z1.908
X10.234 Z1.905
X10.407 Z1.898
X10.667 Z1.889
X10.754 Z1.886
X10.84 Z1.883
X10.927 Z1.88
X11.014 Z1.877
X11.1 Z1.874
X11.187 Z1.871
X11.273 Z1.869
X11.36 Z1.866
X11.533 Z1.861
X11.707 Z1.857
X11.88 Z1.854
X12.053 Z1.851
X12.226 Z1.85
X12.28
X12.32
X12.334
X30.987
X30.989 Y4.688
Y31.846
X30.987 Y31.848
X3.828
X3.826 Y31.846
Y4.688
X3.828 Y4.686
X12.334
X12.355
X12.377
X12.42 Z1.849
X12.507
X12.68 Z1.847
X12.853 Z1.845
X13.027 Z1.841
X13.2 Z1.836
X13.287 Z1.834
X13.373 Z1.831
X13.46 Z1.829
X13.546 Z1.826
X13.633 Z1.823
X13.72 Z1.82
X13.806 Z1.817
X13.893 Z1.814
X13.98 Z1.811
X14.066 Z1.808
X14.153 Z1.805
X14.326 Z1.798
X14.586 Z1.789
X14.673 Z1.786
X14.759 Z1.783
X14.846 Z1.78
X14.932 Z1.777
X15.019 Z1.774
X15.106 Z1.771
X15.192 Z1.769
X15.279 Z1.766
X15.452 Z1.761
X15.625 Z1.757
X15.799 Z1.754
X15.972 Z1.751
X16.145 Z1.75
X16.199
X16.239
X16.253
X30.987
X30.989 Y4.688
Y31.846
X30.987 Y31.848
X3.828
X3.826 Y31.846
Y4.688
X3.828 Y4.686
X16.253
X16.274
X16.296
X16.339 Z1.749
X16.426
X16.599 Z1.747
X16.772 Z1.745
X16.946 Z1.741
X17.119 Z1.736
X17.206 Z1.734
X17.292 Z1.731
X17.379 Z1.729
X17.465 Z1.726
X17.552 Z1.723
X17.639 Z1.72
X17.725 Z1.717
X17.812 Z1.714
X17.899 Z1.711
X17.985 Z1.708
X18.072 Z1.705
X18.245 Z1.698
X18.505 Z1.689
X18.592 Z1.686
X18.678 Z1.683
X18.765 Z1.68
X18.851 Z1.677
X18.938 Z1.674
X19.025 Z1.671
X19.111 Z1.669
X19.198 Z1.666
X19.371 Z1.661
X19.544 Z1.657
X19.718 Z1.654
X19.891 Z1.651
X20.064 Z1.65
X20.118
X20.158
X20.172
X30.987
X30.989 Y4.688
Y31.846
X30.987 Y31.848
X3.828
X3.826 Y31.846
Y4.688
X3.828 Y4.686
X20.172
X20.193
X20.215
X20.258 Z1.649
X20.345
X20.518 Z1.647
X20.691 Z1.645
X20.865 Z1.641
X21.038 Z1.636
X21.124 Z1.634
X21.211 Z1.631
X21.298 Z1.629
X21.384 Z1.626
X21.471 Z1.623
X21.558 Z1.62
X21.644 Z1.617
X21.731 Z1.614
X21.817 Z1.611
X21.904 Z1.608
X21.991 Z1.605
X22.164 Z1.598
X22.424 Z1.589
X22.51 Z1.586
X22.597 Z1.583
X22.684 Z1.58
X22.77 Z1.577
X22.857 Z1.574
X22.944 Z1.571
X23.03 Z1.569
X23.117 Z1.566
X23.29 Z1.561
X23.463 Z1.557
X23.637 Z1.554
X23.81 Z1.551
X23.983 Z1.55
X24.037
X24.077
X24.09
X30.987
X30.989 Y4.688
Y31.846
X30.987 Y31.848
X3.828
X3.826 Y31.846
Y4.688
X3.828 Y4.686
X24.09
X24.112
X24.134
X24.177 Z1.549
X24.264
X24.437 Z1.547
X24.61 Z1.545
X24.783 Z1.541
X24.957 Z1.536
X25.043 Z1.534
X25.13 Z1.531
X25.217 Z1.529
X25.303 Z1.526
X25.39 Z1.523
X25.476 Z1.52
X25.563 Z1.517
X25.65 Z1.514
X25.736 Z1.511
X25.823 Z1.508
X25.91 Z1.505
X26.083 Z1.498
X26.343 Z1.489
X26.429 Z1.486
X26.516 Z1.483
X26.603 Z1.48
X26.689 Z1.477
X26.776 Z1.474
X26.862 Z1.471
X26.949 Z1.469
X27.036 Z1.466
X27.209 Z1.461
X27.382 Z1.457
X27.555 Z1.454
X27.729 Z1.451
X27.902 Z1.45
X27.956
X27.996
X28.009
X30.987
X30.989 Y4.688
Y31.846
X30.987 Y31.848
X3.828
X3.826 Y31.846
Y4.688
X3.828 Y4.686
X28.009
X28.031
X28.053
X28.096 Z1.449
X28.183
X28.356 Z1.447
X28.529 Z1.445
X28.702 Z1.441
X28.876 Z1.436
X28.962 Z1.434
X29.049 Z1.431
X29.136 Z1.429
X29.222 Z1.426
X29.309 Z1.423
X29.395 Z1.42
X29.482 Z1.417
X29.569 Z1.414
X29.655 Z1.411
X29.742 Z1.408
X29.829 Z1.405
X30.002 Z1.398
X30.262 Z1.389
X30.348 Z1.386
X30.435 Z1.383
X30.522 Z1.38
X30.608 Z1.377
X30.695 Z1.374
X30.781 Z1.371
X30.868 Z1.369
X30.955 Z1.366
X30.98 Z1.365
X30.985
X30.989 Y4.688
Y4.697
Y4.71
Y4.752 Z1.363
Y4.826 Z1.361
Y4.999 Z1.357
Y5.173 Z1.354
Y5.346 Z1.351
Y5.519 Z1.35
Y5.573
Y5.613
Y5.627
Y31.846
X30.987 Y31.848
X3.828
X3.826 Y31.846
Y4.688
X3.828 Y4.686
X30.987
X30.989 Y4.688
Y5.627
Y5.648
Y5.67
Y5.713 Z1.349
Y5.8
Y5.973 Z1.347
Y6.146 Z1.345
Y6.32 Z1.341
Y6.493 Z1.336
Y6.58 Z1.334
Y6.666 Z1.331
Y6.753 Z1.329
Y6.839 Z1.326
Y6.926 Z1.323
Y7.013 Z1.32
Y7.099 Z1.317
Y7.186 Z1.314
Y7.272 Z1.311
Y7.359 Z1.308
Y7.446 Z1.305
Y7.619 Z1.298
Y7.879 Z1.289
Y7.965 Z1.286
Y8.052 Z1.283
Y8.139 Z1.28
Y8.225 Z1.277
Y8.312 Z1.274
Y8.399 Z1.271
Y8.485 Z1.269
Y8.572 Z1.266
Y8.745 Z1.261
Y8.918 Z1.257
Y9.092 Z1.254
Y9.265 Z1.251
Y9.438 Z1.25
Y9.492
Y9.532
Y9.546
Y31.846
X30.987 Y31.848
X3.828
X3.826 Y31.846
Y4.688
X3.828 Y4.686
X30.987
X30.989 Y4.688
Y9.546
Y9.567
Y9.589
Y9.632 Z1.249
Y9.719
Y9.892 Z1.247
Y10.065 Z1.245
Y10.239 Z1.241
Y10.412 Z1.236
Y10.498 Z1.234
Y10.585 Z1.231
Y10.672 Z1.229
Y10.758 Z1.226
Y10.845 Z1.223
Y10.932 Z1.22
Y11.018 Z1.217
Y11.105 Z1.214
Y11.191 Z1.211
Y11.278 Z1.208
Y11.365 Z1.205
Y11.538 Z1.198
Y11.798 Z1.189
Y11.884 Z1.186
Y11.971 Z1.183
Y12.058 Z1.18
Y12.144 Z1.177
Y12.231 Z1.174
Y12.318 Z1.171
Y12.404 Z1.169
Y12.491 Z1.166
Y12.664 Z1.161
Y12.837 Z1.157
Y13.011 Z1.154
Y13.184 Z1.151
Y13.357 Z1.15
Y13.411
Y13.451
Y13.464
Y31.846
X30.987 Y31.848
X3.828
X3.826 Y31.846
Y4.688
X3.828 Y4.686
X30.987
X30.989 Y4.688
Y9.546
Y13.464
Y13.486
Y13.508
Y13.551 Z1.149
Y13.638
Y13.811 Z1.147
Y13.984 Z1.145
Y14.157 Z1.141
Y14.331 Z1.136
Y14.417 Z1.134
Y14.504 Z1.131
Y14.591 Z1.129
Y14.677 Z1.126
Y14.764 Z1.123
Y14.85 Z1.12
Y14.937 Z1.117
Y15.024 Z1.114
Y15.11 Z1.111
Y15.197 Z1.108
Y15.284 Z1.105
Y15.457 Z1.098
Y15.717 Z1.089
Y15.803 Z1.086
Y15.89 Z1.083
Y15.977 Z1.08
Y16.063 Z1.077
Y16.15 Z1.074
Y16.236 Z1.071
Y16.323 Z1.069
Y16.41 Z1.066
Y16.583 Z1.061
Y16.756 Z1.057
Y16.929 Z1.054
Y17.103 Z1.051
Y17.276 Z1.05
Y17.33
Y17.37
Y17.383
Y31.846
X30.987 Y31.848
X3.828
X3.826 Y31.846
Y4.688
X3.828 Y4.686
X30.987
X30.989 Y4.688
Y13.464
Y17.383
Y17.405
Y17.427
Y17.47 Z1.049
Y17.557
Y17.73 Z1.047
Y17.903 Z1.045
Y18.076 Z1.041
Y18.25 Z1.036
Y18.336 Z1.034
Y18.423 Z1.031
Y18.509 Z1.029
Y18.596 Z1.026
Y18.683 Z1.023
Y18.769 Z1.02
Y18.856 Z1.017
Y18.943 Z1.014
Y19.029 Z1.011
Y19.116 Z1.008
Y19.202 Z1.005
Y19.376 Z0.998
Y19.636 Z0.989
Y19.722 Z0.986
Y19.809 Z0.983
Y19.895 Z0.98
Y19.982 Z0.977
Y20.069 Z0.974
Y20.155 Z0.971
Y20.242 Z0.969
Y20.329 Z0.966
Y20.502 Z0.961
Y20.675 Z0.957
Y20.848 Z0.954
Y21.022 Z0.951
Y21.195 Z0.95
Y21.249
Y21.289
Y21.302
Y31.846
X30.987 Y31.848
X3.828
X3.826 Y31.846
Y4.688
X3.828 Y4.686
X30.987
X30.989 Y4.688
Y17.383
Y21.302
Y21.324
Y21.346
Y21.389 Z0.949
Y21.476
Y21.649 Z0.947
Y21.822 Z0.945
Y21.995 Z0.941
Y22.169 Z0.936
Y22.255 Z0.934
Y22.342 Z0.931
Y22.428 Z0.929
Y22.515 Z0.926
Y22.602 Z0.923
Y22.688 Z0.92
Y22.775 Z0.917
Y22.862 Z0.914
Y22.948 Z0.911
Y23.035 Z0.908
Y23.121 Z0.905
Y23.295 Z0.898
Y23.555 Z0.889
Y23.641 Z0.886
Y23.728 Z0.883
Y23.814 Z0.88
Y23.901 Z0.877
Y23.988 Z0.874
Y24.074 Z0.871
Y24.161 Z0.869
Y24.248 Z0.866
Y24.421 Z0.861
Y24.594 Z0.857
Y24.767 Z0.854
Y24.941 Z0.851
Y25.114 Z0.85
Y25.167
Y25.208
Y25.221
Y31.846
X30.987 Y31.848
X3.828
X3.826 Y31.846
Y4.688
X3.828 Y4.686
X30.987
X30.989 Y4.688
Y21.302
Y25.221
Y25.243
Y25.265
Y25.308 Z0.849
Y25.394
Y25.568 Z0.847
Y25.741 Z0.845
Y25.914 Z0.841
Y26.087 Z0.836
Y26.174 Z0.834
Y26.261 Z0.831
Y26.347 Z0.829
Y26.434 Z0.826
Y26.521 Z0.823
Y26.607 Z0.82
Y26.694 Z0.817
Y26.78 Z0.814
Y26.867 Z0.811
Y26.954 Z0.808
Y27.04 Z0.805
Y27.214 Z0.798
Y27.473 Z0.789
Y27.56 Z0.786
Y27.647 Z0.783
Y27.733 Z0.78
Y27.82 Z0.777
Y27.907 Z0.774
Y27.993 Z0.771
Y28.08 Z0.769
Y28.166 Z0.766
Y28.34 Z0.761
Y28.513 Z0.757
Y28.686 Z0.754
Y28.859 Z0.751
Y29.033 Z0.75
Y29.086
Y29.127
Y29.14
Y31.846
X30.987 Y31.848
X3.828
X3.826 Y31.846
Y4.688
X3.828 Y4.686
X30.987
X30.989 Y4.688
Y25.221
Y29.14
Y29.162
Y29.183
Y29.227 Z0.749
Y29.313
Y29.487 Z0.747
Y29.66 Z0.745
Y29.833 Z0.741
Y30.006 Z0.736
Y30.093 Z0.734
Y30.18 Z0.731
Y30.266 Z0.729
Y30.353 Z0.726
Y30.439 Z0.723
Y30.526 Z0.72
Y30.613 Z0.717
Y30.699 Z0.714
Y30.786 Z0.711
Y30.873 Z0.708
Y30.959 Z0.705
Y31.132 Z0.698
Y31.392 Z0.689
Y31.479 Z0.686
Y31.566 Z0.683
Y31.652 Z0.68
Y31.739 Z0.677
Y31.813 Z0.675
Y31.838 Z0.674
Y31.847
X30.984 Y31.848
X30.98
X30.966
X30.924 Z0.673
X30.837 Z0.67
X30.751 Z0.667
X30.664 Z0.665
X30.577 Z0.662
X30.404 Z0.658
X30.231 Z0.654
X30.058 Z0.652
X29.884 Z0.65
X29.808
X29.769
X29.736
X29.731
X3.828
X3.826 Y31.846
Y4.688
X3.828 Y4.686
X30.987
X30.989 Y4.688
Y29.14
Y31.846
X30.987 Y31.848
X29.731
X29.709
X29.688
X29.644 Z0.649
X29.558
X29.384 Z0.647
X29.211 Z0.645
X29.038 Z0.641
X28.865 Z0.636
X28.778 Z0.634
X28.691 Z0.631
X28.605 Z0.629
X28.518 Z0.626
X28.432 Z0.623
X28.345 Z0.62
X28.258 Z0.617
X28.172 Z0.614
X28.085 Z0.611
X27.998 Z0.608
X27.912 Z0.605
X27.739 Z0.598
X27.479 Z0.589
X27.392 Z0.586
X27.305 Z0.583
X27.219 Z0.58
X27.132 Z0.577
X27.046 Z0.574
X26.959 Z0.571
X26.872 Z0.569
X26.786 Z0.566
X26.613 Z0.561
X26.439 Z0.557
X26.266 Z0.554
X26.093 Z0.551
X25.92 Z0.55
X25.866
X25.826
X25.812
X3.828
X3.826 Y31.846
Y4.688
X3.828 Y4.686
X30.987
X30.989 Y4.688
Y31.846
X30.987 Y31.848
X25.812
X25.79
X25.769
X25.725 Z0.549
X25.639
X25.466 Z0.547
X25.292 Z0.545
X25.119 Z0.541
X24.946 Z0.536
X24.859 Z0.534
X24.773 Z0.531
X24.686 Z0.529
X24.599 Z0.526
X24.513 Z0.523
X24.426 Z0.52
X24.339 Z0.517
X24.253 Z0.514
X24.166 Z0.511
X24.08 Z0.508
X23.993 Z0.505
X23.82 Z0.498
X23.56 Z0.489
X23.473 Z0.486
X23.387 Z0.483
X23.3 Z0.48
X23.213 Z0.477
X23.127 Z0.474
X23.04 Z0.471
X22.953 Z0.469
X22.867 Z0.466
X22.694 Z0.461
X22.52 Z0.457
X22.347 Z0.454
X22.174 Z0.451
X22.001 Z0.45
X21.947
X21.907
X21.893
X3.828
X3.826 Y31.846
Y4.688
X3.828 Y4.686
X30.987
X30.989 Y4.688
Y31.846
X30.987 Y31.848
X25.812
X21.893
X21.872
X21.85
X21.807 Z0.449
X21.72
X21.547 Z0.447
X21.373 Z0.445
X21.2 Z0.441
X21.027 Z0.436
X20.94 Z0.434
X20.854 Z0.431
X20.767 Z0.429
X20.68 Z0.426
X20.594 Z0.423
X20.507 Z0.42
X20.421 Z0.417
X20.334 Z0.414
X20.247 Z0.411
X20.161 Z0.408
X20.074 Z0.405
X19.901 Z0.398
X19.641 Z0.389
X19.554 Z0.386
X19.468 Z0.383
X19.381 Z0.38
X19.294 Z0.377
X19.208 Z0.374
X19.121 Z0.371
X19.035 Z0.369
X18.948 Z0.366
X18.775 Z0.361
X18.601 Z0.357
X18.428 Z0.354
X18.255 Z0.351
X18.082 Z0.35
X18.028
X17.988
X17.974
X3.828
X3.826 Y31.846
Y4.688
X3.828 Y4.686
X30.987
X30.989 Y4.688
Y31.846
X30.987 Y31.848
X21.893
X17.974
X17.953
X17.931
X17.888 Z0.349
X17.801
X17.628 Z0.347
X17.454 Z0.345
X17.281 Z0.341
X17.108 Z0.336
X17.021 Z0.334
X16.935 Z0.331
X16.848 Z0.329
X16.762 Z0.326
X16.675 Z0.323
X16.588 Z0.32
X16.502 Z0.317
X16.415 Z0.314
X16.328 Z0.311
X16.242 Z0.308
X16.155 Z0.305
X15.982 Z0.298
X15.722 Z0.289
X15.635 Z0.286
X15.549 Z0.283
X15.462 Z0.28
X15.376 Z0.277
X15.289 Z0.274
X15.202 Z0.271
X15.116 Z0.269
X15.029 Z0.266
X14.856 Z0.261
X14.683 Z0.257
X14.509 Z0.254
X14.336 Z0.251
X14.163 Z0.25
X14.109
X14.069
X14.055
X3.828
X3.826 Y31.846
Y4.688
X3.828 Y4.686
X30.987
X30.989 Y4.688
Y31.846
X30.987 Y31.848
X17.974
X14.055
X14.034
X14.012
X13.969 Z0.249
X13.882
X13.709 Z0.247
X13.536 Z0.245
X13.362 Z0.241
X13.189 Z0.236
X13.102 Z0.234
X13.016 Z0.231
X12.929 Z0.229
X12.843 Z0.226
X12.756 Z0.223
X12.669 Z0.22
X12.583 Z0.217
X12.496 Z0.214
X12.409 Z0.211
X12.323 Z0.208
X12.236 Z0.205
X12.063 Z0.198
X11.803 Z0.189
X11.716 Z0.186
X11.63 Z0.183
X11.543 Z0.18
X11.457 Z0.177
X11.37 Z0.174
X11.283 Z0.171
X11.197 Z0.169
X11.11 Z0.166
X10.937 Z0.161
X10.764 Z0.157
X10.59 Z0.154
X10.417 Z0.151
X10.244 Z0.15
X10.19
X10.15
X10.136
X3.828
X3.826 Y31.846
Y4.688
X3.828 Y4.686
X30.987
X30.989 Y4.688
Y31.846
X30.987 Y31.848
X14.055
X10.136
X10.091 Y31.842
X10.049 Y31.822
X10.015 Y31.792
X9.991 Y31.753
X9.979 Y31.709
X9.98 Y31.663
X10.11 Y30.904
X10.118 Y30.856 Z0.157
X10.125 Y30.812 Z0.18
X10.131 Y30.778 Z0.215
X10.135 Y30.756 Z0.259
X10.136 Y30.748 Z0.308
G0 Z18.25
X17.307 Y16.605
Z11.724
G1 Z10.65 F356.
G3 X17.458 Y16.354 I0.127 J-0.095
G1 X17.558 Y16.355
X17.659 Y16.348
X17.759 Y16.34
X17.86 Y16.33
X17.959 Y16.307
X17.96
X18.061 Y16.269
X18.161 Y16.215
X18.174 Y16.207
X18.262 Y16.141
X18.3 Y16.106
X18.362 Y16.038
X18.39 Y16.006
X18.463 Y15.917
X18.472 Y15.905
X18.537 Y15.805
X18.563 Y15.763
X18.596 Y15.704
X18.619 Y15.654
X18.639 Y15.604
X18.664 Y15.538
X18.676 Y15.503
X18.703 Y15.402
X18.713 Y15.352
X18.72 Y15.302
X18.724 Y15.201
X18.715 Y15.101
X18.693 Y15.
X18.664 Y14.916
X18.657 Y14.9
X18.604 Y14.799
X18.563 Y14.735
X18.541 Y14.699
X18.463 Y14.6
X18.461 Y14.598
X18.412 Y14.55
X18.362 Y14.508
X18.348 Y14.498
X18.262 Y14.443
X18.212 Y14.418
X18.163 Y14.397
X18.161
X18.111 Y14.38
X18.061 Y14.366
X17.96 Y14.347
X17.86 Y14.33
X17.759 Y14.316
X17.659 Y14.314
X17.558
X17.458 Y14.318
X17.357 Y14.324
X17.257 Y14.341
X17.156 Y14.363
X17.106 Y14.376
X17.056 Y14.392
X17.04 Y14.397
X16.998 Y14.415
X16.955 Y14.436
X16.905 Y14.464
X16.855 Y14.498
X16.854
X16.804 Y14.538
X16.754 Y14.585
X16.741 Y14.598
X16.653 Y14.69
X16.646 Y14.699
X16.577 Y14.799
X16.553 Y14.845
X16.528 Y14.9
X16.496 Y15.
X16.477 Y15.101
X16.471 Y15.201
X16.478 Y15.302
X16.498 Y15.402
X16.527 Y15.503
X16.553 Y15.59
X16.558 Y15.604
X16.602 Y15.704
X16.626 Y15.749
X16.653 Y15.795
X16.66 Y15.805
X16.738 Y15.905
X16.754 Y15.924
X16.822 Y16.006
X16.854 Y16.04
X16.92 Y16.106
X16.955 Y16.136
X17.056 Y16.207
X17.156 Y16.266
X17.248 Y16.307
X17.257 Y16.31
X17.357 Y16.339
X17.458 Y16.354
X17.526 Y16.36
X17.608 Y16.376
X17.691 Y16.4
X17.761 Y16.426
X17.837 Y16.455
X17.913 Y16.478
X17.991 Y16.491
X18.071 Y16.494
X18.114 Y16.49
X18.156 Y16.483
X18.197 Y16.47
X18.236 Y16.453
X18.305 Y16.406
X18.365 Y16.347
X18.369 Y16.343
X18.402 Y16.307 Z10.648
X18.463 Y16.242 Z10.645
X18.494 Y16.207 Z10.643
X18.531 Y16.16 Z10.641
X18.563 Y16.114 Z10.639
X18.568 Y16.106
X18.597 Y16.056 Z10.637
X18.622 Y16.006 Z10.635
X18.671 Y15.905 Z10.631
X18.721 Y15.805 Z10.627
X18.762 Y15.704 Z10.623
X18.764 Y15.698
X18.781 Y15.651 Z10.621
X18.789 Y15.627 Z10.62
X18.795 Y15.604 Z10.619
X18.819 Y15.503 Z10.616
X18.843 Y15.402 Z10.612
X18.865 Y15.302 Z10.609
X18.875 Y15.252 Z10.607
X18.881 Y15.201 Z10.605
X18.884 Y15.101 Z10.601
X18.875 Y15. Z10.598
X18.865 Y14.95 Z10.596
X18.852 Y14.9 Z10.594
X18.835 Y14.85 Z10.593
X18.814 Y14.799 Z10.591
X18.766 Y14.699 Z10.587
X18.764 Y14.696
X18.736 Y14.647 Z10.585
X18.703 Y14.598 Z10.583
X18.664 Y14.549 Z10.58
X18.616 Y14.498 Z10.578
X18.563 Y14.451 Z10.575
X18.488 Y14.397 Z10.572
X18.463 Y14.382 Z10.571
X18.412 Y14.355 Z10.569
X18.362 Y14.332 Z10.567
X18.262 Y14.297 Z10.564
X18.261
X18.161 Y14.274 Z10.56
X17.96 Y14.237 Z10.553
X17.91 Y14.228 Z10.551
X17.885 Y14.225 Z10.55
X17.871 Y14.223
X17.866 Y14.222
X17.86
X17.834 Y14.22
X17.809 Y14.218
X17.784
X17.759
X17.659 Y14.219
X17.558 Y14.22
X17.458 Y14.222
X17.357 Y14.221
X17.332 Y14.222
X17.307 Y14.223
X17.282 Y14.225
X17.257 Y14.228
X17.206 Y14.236
X17.156 Y14.247
X17.056 Y14.27
X16.955 Y14.293
X16.941 Y14.297
X16.854 Y14.327
X16.804 Y14.348
X16.754 Y14.374
X16.714 Y14.397
X16.653 Y14.44
X16.587 Y14.498
X16.553 Y14.533
X16.509 Y14.587
X16.5 Y14.598
X16.452 Y14.671
X16.437 Y14.699
X16.388 Y14.799
X16.352 Y14.895
X16.35 Y14.9
X16.327 Y15.
X16.318 Y15.101
X16.321 Y15.201
X16.327 Y15.252
X16.337 Y15.302
X16.352 Y15.368
X16.36 Y15.402
X16.37 Y15.453
X16.384 Y15.503
X16.421 Y15.604
X16.533 Y15.892
X16.536 Y15.899
X16.538 Y15.905
X16.542 Y15.914
X16.546 Y15.922
X16.582 Y16.006
X16.606 Y16.056
X16.634 Y16.106
X16.653 Y16.137
X16.706 Y16.207
X16.754 Y16.26
X16.799 Y16.307
X16.854 Y16.363
X16.899 Y16.408
X16.955 Y16.457
X17.025 Y16.508
X17.056 Y16.527
X17.156 Y16.576
X17.255 Y16.609
X17.257
X17.357 Y16.628
X17.441 Y16.633
X17.458 Y16.634
X17.558
X17.659
X17.759 Y16.633
X17.86 Y16.626
X17.946 Y16.609
X17.96 Y16.605
X18.061 Y16.57
X18.161 Y16.518
X18.177 Y16.508
X18.262 Y16.446
X18.304 Y16.408
X18.362 Y16.35
X18.402 Y16.307
X18.463 Y16.242
X18.494 Y16.207
X18.531 Y16.16
X18.563 Y16.114
X18.568 Y16.106
X18.597 Y16.056
X18.622 Y16.006
X18.671 Y15.905
X18.721 Y15.805
X18.762 Y15.704
X18.764 Y15.698
X18.781 Y15.651
X18.789 Y15.627
X18.795 Y15.604
X18.819 Y15.503
X18.843 Y15.402
X18.865 Y15.302
X18.875 Y15.252
X18.881 Y15.201
X18.884 Y15.101
X18.875 Y15.
X18.865 Y14.95
X18.852 Y14.9
X18.835 Y14.85
X18.814 Y14.799
X18.766 Y14.699
X18.764 Y14.696
X18.736 Y14.647
X18.703 Y14.598
X18.664 Y14.549
X18.616 Y14.498
X18.563 Y14.451
X18.488 Y14.397
X18.463 Y14.382
X18.412 Y14.355
X18.362 Y14.332
X18.262 Y14.297
X18.261
X18.161 Y14.274
X17.96 Y14.237
X17.91 Y14.228
X17.885 Y14.225
X17.866 Y14.222
X17.847 Y14.219
X17.828 Y14.213
X17.81 Y14.206
X17.791 Y14.198
X17.773 Y14.19
X17.754 Y14.181
X17.736 Y14.173
X17.718 Y14.167
X17.699 Y14.163
X17.681 Y14.161
X17.676
X17.659 Y14.16 Z10.549
X17.558 Y14.162 Z10.545
X17.458 Y14.164 Z10.542
X17.357 Y14.166 Z10.538
X17.307 Y14.163 Z10.537
X17.275 Y14.161 Z10.536
X17.274 Z10.535
X17.269
X17.257 Y14.159
X17.206 Y14.155 Z10.533
X17.156 Y14.154 Z10.531
X17.106 Y14.157 Z10.53
X17.056 Y14.162 Z10.528
X17.005 Y14.169 Z10.526
X16.955 Y14.18 Z10.524
X16.901 Y14.196 Z10.522
X16.854 Y14.213 Z10.521
X16.754 Y14.252 Z10.517
X16.662 Y14.297 Z10.513
X16.653 Y14.302
X16.553 Y14.371 Z10.509
X16.522 Y14.397 Z10.507
X16.452 Y14.469 Z10.504
X16.429 Y14.498 Z10.502
X16.36 Y14.598 Z10.498
X16.352 Y14.612
X16.3 Y14.699 Z10.494
X16.257 Y14.799 Z10.49
X16.251 Y14.815
X16.229 Y14.9 Z10.487
X16.22 Y14.95 Z10.485
X16.214 Y15. Z10.483
X16.209 Y15.101 Z10.48
X16.215 Y15.201 Z10.476
X16.231 Y15.302 Z10.472
X16.24 Y15.345 Z10.471
X16.251 Y15.387 Z10.469
X16.256 Y15.402
X16.294 Y15.503 Z10.465
X16.338 Y15.617 Z10.461
X16.339 Y15.619
X16.421 Y15.905 Z10.45
X16.427 Y15.923
X16.428 Y15.928
X16.451 Y16.006
X16.452 Y16.01
X16.492 Y16.106
X16.553 Y16.238
X16.585 Y16.307
X16.61 Y16.357
X16.641 Y16.408
X16.653 Y16.426
X16.684 Y16.467
X16.719 Y16.508
X16.754 Y16.544
X16.819 Y16.609
X16.854 Y16.643
X16.924 Y16.709
X16.955 Y16.735
X17.056 Y16.804
X17.066 Y16.81
X17.156 Y16.853
X17.257 Y16.886
X17.357 Y16.905
X17.442 Y16.91
X17.458
X17.471
X17.759 Y16.908
X17.86 Y16.9
X17.96 Y16.88
X18.061 Y16.846
X18.136 Y16.81
X18.161 Y16.795
X18.262 Y16.724
X18.279 Y16.709
X18.362 Y16.63
X18.384 Y16.609
X18.463 Y16.525
X18.478 Y16.508
X18.522 Y16.458
X18.559 Y16.408
X18.563 Y16.402
X18.592 Y16.354
X18.617 Y16.307
X18.667 Y16.207
X18.718 Y16.106
X18.764 Y16.018
X18.77 Y16.006
X18.809 Y15.905
X18.844 Y15.805
X18.865 Y15.747
X18.882 Y15.704
X18.899 Y15.654
X18.911 Y15.604
X18.932 Y15.503
X18.942 Y15.453
X18.947 Y15.428
X18.951 Y15.402
X18.965 Y15.316
X18.969 Y15.302
X18.988 Y15.201
X18.994 Y15.101
X18.989 Y15.
X18.983 Y14.95
X18.974 Y14.9
X18.965 Y14.863
X18.946 Y14.799
X18.902 Y14.699
X18.865 Y14.634
X18.842 Y14.598
X18.774 Y14.498
X18.764 Y14.485
X18.68 Y14.397
X18.664 Y14.383
X18.563 Y14.31
X18.541 Y14.297
X18.463 Y14.258
X18.362 Y14.219
X18.302 Y14.196
X18.262 Y14.184
X18.211 Y14.172
X18.161 Y14.163
X18.111 Y14.158
X18.061 Y14.155
X18.01
X17.96 Y14.158
X17.948 Y14.159
X17.944
X17.943
X17.864 Y14.161
X17.86 Y14.162
X17.759 Y14.163
X17.659 Y14.16
X17.558 Y14.162
X17.458 Y14.164
X17.357 Y14.166
X17.307 Y14.163
X17.275 Y14.161
X17.274
X17.269
X17.257 Y14.159
X17.206 Y14.155
X17.156 Y14.154
X17.106 Y14.157
X17.056 Y14.162
X17.005 Y14.169
X16.955 Y14.18
X16.901 Y14.196
X16.854 Y14.213
X16.754 Y14.252
X16.662 Y14.297
X16.653 Y14.302
X16.553 Y14.371
X16.522 Y14.397
X16.452 Y14.469
X16.429 Y14.498
X16.36 Y14.598
X16.352 Y14.612
X16.3 Y14.699
X16.257 Y14.799
X16.251 Y14.815
X16.229 Y14.9
X16.22 Y14.95
X16.214 Y15.
X16.209 Y15.101
X16.215 Y15.201
X16.231 Y15.302
X16.24 Y15.345
X16.251 Y15.387
X16.256 Y15.402
X16.294 Y15.503
X16.338 Y15.617
X16.339 Y15.619
X16.421 Y15.905
X16.428 Y15.928
X16.436 Y15.967
X16.438 Y16.
Y16.041
Y16.074
X16.436 Y16.118
X16.435 Y16.161
X16.434 Y16.205
X16.436 Y16.247
X16.441 Y16.288
X16.452 Y16.326
X16.467 Y16.362
X16.469 Y16.367
X16.486 Y16.408 Z10.448
X16.53 Y16.508 Z10.444
X16.553 Y16.559 Z10.442
X16.579 Y16.609 Z10.44
X16.641 Y16.709 Z10.436
X16.653 Y16.727 Z10.435
X16.686 Y16.768 Z10.434
X16.723 Y16.81 Z10.432
X16.754 Y16.84 Z10.43
X16.826 Y16.91 Z10.427
X16.854 Y16.937 Z10.425
X16.934 Y17.011 Z10.421
X16.955 Y17.028 Z10.42
X17.056 Y17.095 Z10.416
X17.085 Y17.111 Z10.415
X17.156 Y17.143 Z10.412
X17.257 Y17.177 Z10.409
X17.357 Y17.203 Z10.405
X17.416 Y17.212 Z10.403
X17.458 Y17.215 Z10.401
X17.558 Z10.398
X17.595 Y17.212 Z10.397
X17.659 Y17.202 Z10.394
X17.759 Y17.196 Z10.391
X17.86 Y17.19 Z10.387
X17.96 Y17.17 Z10.384
X18.061 Y17.136 Z10.38
X18.116 Y17.111 Z10.378
X18.161 Y17.086 Z10.376
X18.262 Y17.016 Z10.372
X18.268 Y17.011
X18.362 Y16.923 Z10.367
X18.375 Y16.91 Z10.366
X18.463 Y16.823 Z10.362
X18.475 Y16.81
X18.559 Y16.709 Z10.357
X18.563 Y16.704
X18.594 Y16.656 Z10.355
X18.62 Y16.609 Z10.353
X18.66 Y16.528 Z10.35
X18.662 Y16.523
X18.664 Y16.52
X18.727 Y16.408
X18.764 Y16.339
X18.78 Y16.307
X18.82 Y16.207
X18.865 Y16.086
X18.895 Y16.006
X18.925 Y15.905
X18.978 Y15.726
X18.979 Y15.724
X18.98 Y15.72
X18.987 Y15.704
X19.004 Y15.654
X19.018 Y15.604
X19.037 Y15.503
X19.047 Y15.453
X19.06 Y15.402
X19.088 Y15.302
X19.114 Y15.201
X19.122 Y15.151
X19.128 Y15.101
X19.129 Y15.
X19.12 Y14.9
X19.105 Y14.799
X19.078 Y14.699
X19.066 Y14.657
X19.044 Y14.598
X18.994 Y14.498
X18.965 Y14.453
X18.924 Y14.397
X18.865 Y14.327
X18.835 Y14.297
X18.764 Y14.237
X18.706 Y14.196
X18.664 Y14.172
X18.563 Y14.126
X18.464 Y14.096
X18.463
X18.362 Y14.079
X18.262 Y14.076
X18.249
X18.244
X18.243
X18.237
X18.211 Y14.073
X18.161 Y14.071
X18.111 Y14.072
X18.061 Y14.076
X17.96 Y14.092
X17.9 Y14.103
X17.897 Y14.104
X17.896
X17.89
X17.88
X17.759 Y14.101
X17.659 Y14.099
X17.558 Y14.101
X17.313 Y14.105
X17.311
X17.31
X17.262 Y14.096
X17.257 Y14.095
X17.156 Y14.078
X17.106 Y14.073
X17.056 Y14.071
X17.005 Y14.072
X16.98 Y14.074
X16.96 Y14.076
X16.958
X16.955
X16.905 Y14.075
X16.854 Y14.078
X16.754 Y14.092
X16.739 Y14.096
X16.653 Y14.121
X16.553 Y14.164
X16.497 Y14.196
X16.452 Y14.226
X16.368 Y14.297
X16.352 Y14.313
X16.279 Y14.397
X16.251 Y14.433
X16.209 Y14.498
X16.158 Y14.598
X16.151 Y14.617
X16.124 Y14.699
X16.098 Y14.799
X16.082 Y14.9
X16.073 Y15.
X16.074 Y15.101
X16.08 Y15.151
X16.088 Y15.201
X16.1 Y15.252
X16.116 Y15.302
X16.146 Y15.402
X16.171 Y15.503
X16.184 Y15.553
X16.199 Y15.604
X16.303 Y15.965
X16.315 Y16.006
X16.35 Y16.106
X16.352 Y16.11
X16.396 Y16.207
X16.442 Y16.307
X16.486 Y16.408
X16.53 Y16.508
X16.553 Y16.559
X16.579 Y16.609
X16.641 Y16.709
X16.653 Y16.727
X16.686 Y16.768
X16.723 Y16.81
X16.754 Y16.84
X16.826 Y16.91
X16.854 Y16.937
X16.934 Y17.011
X16.955 Y17.028
X17.056 Y17.095
X17.085 Y17.111
X17.156 Y17.143
X17.257 Y17.177
X17.357 Y17.203
X17.416 Y17.212
X17.458 Y17.215
X17.558
X17.595 Y17.212
X17.659 Y17.202
X17.759 Y17.196
X17.86 Y17.19
X17.96 Y17.17
X18.061 Y17.136
X18.116 Y17.111
X18.161 Y17.086
X18.262 Y17.016
X18.268 Y17.011
X18.362 Y16.923
X18.375 Y16.91
X18.463 Y16.823
X18.475 Y16.81
X18.559 Y16.709
X18.563 Y16.704
X18.594 Y16.656
X18.62 Y16.609
X18.662 Y16.523
X18.683 Y16.491
X18.715 Y16.455
X18.75 Y16.419
X18.787 Y16.385
X18.823 Y16.35
X18.857 Y16.314
X18.888 Y16.278
X18.917 Y16.24
X18.941 Y16.201
X18.96 Y16.16
X18.974 Y16.116
X18.976 Y16.111
X18.977 Y16.106 Z10.349
X19.066 Y15.805 Z10.338
X19.094 Y15.704 Z10.335
X19.122 Y15.604 Z10.331
X19.177 Y15.402 Z10.324
X19.205 Y15.302 Z10.32
X19.232 Y15.201 Z10.317
X19.262 Y15.101 Z10.313
X19.267 Y15.079 Z10.312
X19.275 Y15.04 Z10.311
X19.281 Y15. Z10.309
X19.286 Y14.95 Z10.308
X19.287 Y14.9 Z10.306
X19.28 Y14.799 Z10.302
X19.267 Y14.724 Z10.3
X19.264 Y14.711 Z10.299
X19.263 Y14.707
Y14.705
X19.262 Y14.699
X19.251 Y14.598 Z10.295
X19.231 Y14.498 Z10.292
X19.2 Y14.397 Z10.288
X19.166 Y14.322 Z10.285
X19.153 Y14.297 Z10.284
X19.087 Y14.196 Z10.28
X19.066 Y14.171 Z10.279
X18.994 Y14.096 Z10.275
X18.965 Y14.071 Z10.274
X18.865 Y14. Z10.269
X18.856 Y13.995
X18.764 Y13.95 Z10.265
X18.664 Y13.916 Z10.262
X18.563 Y13.896 Z10.258
X18.554 Y13.895
X18.463 Y13.889 Z10.255
X18.365 Y13.895 Z10.251
X18.362
X18.321 Y13.903 Z10.25
X18.316 Y13.904
X18.262 Y13.914
X18.211 Y13.929
X18.161 Y13.947
X18.043 Y13.995
X17.96 Y14.028
X17.954 Y14.03
X17.952 Y14.031
X17.951
X17.935 Y14.034
X17.91 Y14.039
X17.885 Y14.045
X17.872 Y14.048
X17.871
X17.869 Y14.049
X17.641 Y14.067
X17.64
X17.327 Y14.047
X17.326
X17.319 Y14.045
X17.307 Y14.042
X17.257 Y14.032
X17.213 Y14.024
X17.128 Y13.995
X17.056 Y13.971
